; generated by PrusaSlicer 2.4.1+linux-x64-GTK2 on 2022-10-10 at 07:49:16 UTC


;
;
; 

; external perimeters extrusion width = 0.45mm
; perimeters extrusion width = 0.45mm
; infill extrusion width = 0.45mm
; solid infill extrusion width = 0.45mm
; top infill extrusion width = 0.40mm
; first layer extrusion width = 0.42mm

M73 P0 R347
M73 Q0 S348
M201 X1000 Y1000 Z200 E5000 ; sets maximum accelerations, mm/sec^2
M203 X200 Y200 Z12 E120 ; sets maximum feedrates, mm / sec
M204 P1250 R1250 T1250 ; sets acceleration (P, T) and retract acceleration (R), mm/sec^2
M205 X8.00 Y8.00 Z0.40 E4.50 ; sets the jerk limits, mm/sec
M205 S0 T0 ; sets the minimum extruding and travel feed rate, mm/sec
M107
;TYPE:Custom
M862.3 P "MK3S" ; printer model check
M862.1 P0.4 ; nozzle diameter check
M115 U3.11.0 ; tell printer latest fw version
G90 ; use absolute coordinates
M83 ; extruder relative mode
M104 S215 ; set extruder temp
M140 S60 ; set bed temp
M190 S60 ; wait for bed temp
M109 S215 ; wait for extruder temp
G28 W ; home all without mesh bed level
G80 ; mesh bed leveling
G1 Z0.2 F720
G1 Y-3 F1000 ; go outside print area
G92 E0
G1 X60 E9 F1000 ; intro line
G1 X100 E12.5 F1000 ; intro line
G92 E0
M221 S95

; Don't change E values below. Excessive value can damage the printer.
M907 E430 ; set extruder motor current
G21 ; set units to millimeters
G90 ; use absolute coordinates
M83 ; use relative distances for extrusion
M900 K0.05 ; Filament gcode LA 1.5
M900 K30 ; Filament gcode LA 1.0
M107
;LAYER_CHANGE
;Z:0.2
;HEIGHT:0.2
;BEFORE_LAYER_CHANGE
G92 E0.0
;0.2


M73 P0 R346
G1 E-.8 F2100
G1 Z.4 F720
;AFTER_LAYER_CHANGE
;0.2
G1 X24.957 Y57.561 F10800
G1 Z.2 F720
G1 E.8 F2100
M204 S800
;TYPE:Skirt/Brim
;WIDTH:0.42
G1 F1200
G1 X87.727 Y30.345 E2.14514
G1 X88.673 Y30.149 E.03028
G1 X246.913 Y30.149 E4.9615
G1 X248.22 Y30.54 E.04278
G1 X249.096 Y31.586 E.04278
G1 X249.29 Y32.526 E.03008
G1 X249.29 Y100.343 E2.12636
G1 X248.455 Y102.151 E.06245
G1 X158.034 Y179.283 E3.72646
G1 X156.491 Y179.851 E.05155
G1 X88.674 Y179.851 E2.12636
G1 X87.667 Y179.628 E.03234
G1 X2.08 Y139.604 E2.96243
G1 X1.062 Y138.696 E.04278
M73 Q0 S347
G1 X.71 Y137.451 E.04056
G1 X.71 Y69.634 E2.12636
G1 X1.102 Y68.327 E.04278
G1 X2.142 Y67.453 E.04259
G1 X24.902 Y57.584 E.77782
M204 S1000
; printing object FOUR_CONTAINERS_VOCHOZKA.STL id:0 copy 0
;WIPE_START
G1 F8640
G1 X27.922 Y56.275 E-.76
;WIPE_END
G1 E-.04 F2100
G1 Z.6 F720
G1 X155.703 Y41.074 F10800
G1 Z.2 F720
G1 E.8 F2100
M204 S800
;TYPE:Perimeter
G1 F1200
G1 X172.657 Y41.074 E.53159
G1 X172.657 Y78.524 E1.17423
G1 X179.883 Y78.524 E.22655
G1 X179.883 Y33.313 E1.41757
G1 X246.126 Y33.313 E2.077
G1 X246.126 Y99.556 E2.077
G1 X179.883 Y99.556 E2.077
G1 X179.883 Y88.253 E.35439
G1 X162.928 Y88.253 E.53159
G1 X162.928 Y50.802 E1.17423
G1 X155.703 Y50.802 E.22655
M73 P0 R345
G1 X155.703 Y99.556 E1.52863
G1 X89.46 Y99.556 E2.077
G1 X89.46 Y88.253 E.35439
G1 X70.117 Y88.253 E.60647
G1 X70.117 Y119.244 E.97171
G1 X89.461 Y119.244 E.60651
G1 X89.461 Y110.444 E.27592
G1 X155.704 Y110.444 E2.077
G1 X155.704 Y176.687 E2.077
G1 X89.461 Y176.687 E2.077
G1 X89.461 Y128.973 E1.49605
G1 X70.117 Y128.973 E.60651
G1 X70.117 Y136.664 E.24114
G1 X3.874 Y136.664 E2.077
G1 X3.874 Y70.421 E2.077
G1 X70.117 Y70.421 E2.077
G1 X70.117 Y78.524 E.25408
M73 Q0 S346
G1 X89.46 Y78.524 E.60647
G1 X89.46 Y33.313 E1.41757
G1 X155.703 Y33.313 E2.077
G1 X155.703 Y41.014 E.24146
M204 S1000
G1 X156.08 Y40.697 F10800
M204 S800
;TYPE:External perimeter
G1 F1200
G1 X173.034 Y40.697 E.53159
G1 X173.034 Y78.147 E1.17423
G1 X179.506 Y78.147 E.20291
G1 X179.506 Y32.936 E1.41757
G1 X246.503 Y32.936 E2.10065
G1 X246.503 Y99.933 E2.10065
G1 X179.506 Y99.933 E2.10065
G1 X179.506 Y88.63 E.35439
G1 X162.551 Y88.63 E.53159
G1 X162.551 Y51.179 E1.17423
G1 X156.08 Y51.179 E.20291
M73 P0 R344
G1 X156.08 Y99.933 E1.52863
G1 X89.083 Y99.933 E2.10065
G1 X89.083 Y88.63 E.35439
G1 X70.494 Y88.63 E.58282
G1 X70.494 Y118.867 E.94807
G1 X89.084 Y118.867 E.58286
G1 X89.084 Y110.067 E.27592
G1 X156.081 Y110.067 E2.10065
G1 X156.081 Y177.064 E2.10065
G1 X89.084 Y177.064 E2.10065
G1 X89.084 Y129.35 E1.49605
G1 X70.494 Y129.35 E.58286
G1 X70.494 Y137.041 E.24114
G1 X3.497 Y137.041 E2.10065
G1 X3.497 Y70.044 E2.10065
G1 X70.494 Y70.044 E2.10065
G1 X70.494 Y78.147 E.25408
M73 Q0 S345
G1 X89.083 Y78.147 E.58282
G1 X89.083 Y32.936 E1.41757
G1 X156.08 Y32.936 E2.10065
G1 X156.08 Y40.637 E.24146
M204 S1000
G1 X156.266 Y41.05 F10800
;WIPE_START
G1 F8640
G1 X159.371 Y40.648 E-.76
;WIPE_END
G1 E-.04 F2100
G1 Z.6 F720
G1 X246.012 Y34.189 F10800
G1 Z.2 F720
G1 E.8 F2100
M204 S800
;TYPE:Solid infill
;WIDTH:0.420216
G1 F1200
G1 X245.419 Y33.596 E.02631
G1 X244.886 Y33.596 E.01674
G1 X245.843 Y34.553 E.04246
G1 X245.843 Y35.086 E.01674
G1 X244.352 Y33.596 E.06613
G1 X243.819 Y33.596 E.01674
G1 X245.843 Y35.62 E.0898
G1 X245.843 Y36.153 E.01674
G1 X243.285 Y33.596 E.11348
G1 X242.751 Y33.596 E.01674
G1 X245.843 Y36.687 E.13715
G1 X245.843 Y37.22 E.01674
G1 X242.218 Y33.596 E.16082
G1 X241.684 Y33.596 E.01674
G1 X245.843 Y37.754 E.1845
G1 X245.843 Y38.288 E.01674
G1 X241.151 Y33.596 E.20817
G1 X240.617 Y33.596 E.01674
G1 X245.843 Y38.821 E.23184
G1 X245.843 Y39.355 E.01674
G1 X240.084 Y33.596 E.25552
G1 X239.55 Y33.596 E.01674
G1 X245.843 Y39.888 E.27919
G1 X245.843 Y40.422 E.01674
G1 X239.016 Y33.596 E.30286
G1 X238.483 Y33.596 E.01674
G1 X245.843 Y40.955 E.32654
G1 X245.843 Y41.489 E.01674
G1 X237.949 Y33.596 E.35021
G1 X237.416 Y33.596 E.01674
G1 X245.843 Y42.023 E.37388
G1 X245.843 Y42.556 E.01674
G1 X236.882 Y33.596 E.39756
G1 X236.349 Y33.596 E.01674
G1 X245.843 Y43.09 E.42123
G1 X245.843 Y43.623 E.01674
G1 X235.815 Y33.596 E.4449
G1 X235.281 Y33.596 E.01674
G1 X245.843 Y44.157 E.46858
G1 X245.843 Y44.691 E.01674
G1 X234.748 Y33.596 E.49225
G1 X234.214 Y33.596 E.01674
G1 X245.843 Y45.224 E.51592
G1 X245.843 Y45.758 E.01674
G1 X233.681 Y33.596 E.5396
G1 X233.147 Y33.596 E.01674
G1 X245.843 Y46.291 E.56327
G1 X245.843 Y46.825 E.01674
G1 X232.614 Y33.596 E.58694
G1 X232.08 Y33.596 E.01674
G1 X245.843 Y47.358 E.61062
G1 X245.843 Y47.892 E.01674
G1 X231.546 Y33.596 E.63429
G1 X231.013 Y33.596 E.01674
G1 X245.843 Y48.426 E.65796
G1 X245.843 Y48.959 E.01674
M73 P0 R343
G1 X230.479 Y33.596 E.68164
G1 X229.946 Y33.596 E.01674
G1 X245.843 Y49.493 E.70531
G1 X245.843 Y50.026 E.01674
G1 X229.412 Y33.596 E.72898
G1 X228.878 Y33.596 E.01674
G1 X245.843 Y50.56 E.75265
G1 X245.843 Y51.093 E.01674
G1 X228.345 Y33.596 E.77633
G1 X227.811 Y33.596 E.01674
G1 X245.843 Y51.627 E.8
G1 X245.843 Y52.161 E.01674
G1 X227.278 Y33.596 E.82367
G1 X226.744 Y33.596 E.01674
G1 X245.843 Y52.694 E.84735
G1 X245.843 Y53.228 E.01674
G1 X226.211 Y33.596 E.87102
G1 X225.677 Y33.596 E.01674
G1 X245.843 Y53.761 E.89469
G1 X245.843 Y54.295 E.01674
G1 X225.143 Y33.596 E.91837
G1 X224.61 Y33.596 E.01674
G1 X245.843 Y54.829 E.94204
G1 X245.843 Y55.362 E.01674
G1 X224.076 Y33.596 E.96571
G1 X223.543 Y33.596 E.01674
G1 X245.843 Y55.896 E.98939
G1 X245.843 Y56.429 E.01674
G1 X223.009 Y33.596 E1.01306
G1 X222.476 Y33.596 E.01674
G1 X245.843 Y56.963 E1.03673
G1 X245.843 Y57.496 E.01674
G1 X221.942 Y33.596 E1.06041
G1 X221.408 Y33.596 E.01674
G1 X245.843 Y58.03 E1.08408
G1 X245.843 Y58.564 E.01674
G1 X220.875 Y33.596 E1.10775
G1 X220.341 Y33.596 E.01674
M73 P1 R343
M73 Q1 S345
G1 X245.843 Y59.097 E1.13143
G1 X245.843 Y59.631 E.01674
G1 X219.808 Y33.596 E1.1551
G1 X219.274 Y33.596 E.01674
G1 X245.843 Y60.164 E1.17877
G1 X245.843 Y60.698 E.01674
M73 Q1 S344
G1 X218.741 Y33.596 E1.20245
G1 X218.207 Y33.596 E.01674
G1 X245.843 Y61.231 E1.22612
G1 X245.843 Y61.765 E.01674
G1 X217.673 Y33.596 E1.24979
G1 X217.14 Y33.596 E.01674
G1 X245.843 Y62.299 E1.27347
G1 X245.843 Y62.832 E.01674
G1 X216.606 Y33.596 E1.29714
G1 X216.073 Y33.596 E.01674
G1 X245.843 Y63.366 E1.32081
G1 X245.843 Y63.899 E.01674
G1 X215.539 Y33.596 E1.34449
G1 X215.005 Y33.596 E.01674
G1 X245.843 Y64.433 E1.36816
G1 X245.843 Y64.966 E.01674
G1 X214.472 Y33.596 E1.39183
G1 X213.938 Y33.596 E.01674
G1 X245.843 Y65.5 E1.41551
G1 X245.843 Y66.034 E.01674
G1 X213.405 Y33.596 E1.43918
G1 X212.871 Y33.596 E.01674
G1 X245.843 Y66.567 E1.46285
G1 X245.843 Y67.101 E.01674
G1 X212.338 Y33.596 E1.48653
G1 X211.804 Y33.596 E.01674
M73 P1 R342
G1 X245.843 Y67.634 E1.5102
G1 X245.843 Y68.168 E.01674
G1 X211.27 Y33.596 E1.53387
G1 X210.737 Y33.596 E.01674
G1 X245.843 Y68.702 E1.55755
G1 X245.843 Y69.235 E.01674
G1 X210.203 Y33.596 E1.58122
G1 X209.67 Y33.596 E.01674
G1 X245.843 Y69.769 E1.60489
G1 X245.843 Y70.302 E.01674
G1 X209.136 Y33.596 E1.62857
G1 X208.603 Y33.596 E.01674
G1 X245.843 Y70.836 E1.65224
G1 X245.843 Y71.369 E.01674
G1 X208.069 Y33.596 E1.67591
G1 X207.535 Y33.596 E.01674
G1 X245.843 Y71.903 E1.69959
G1 X245.843 Y72.437 E.01674
G1 X207.002 Y33.596 E1.72326
G1 X206.468 Y33.596 E.01674
G1 X245.843 Y72.97 E1.74693
G1 X245.843 Y73.504 E.01674
G1 X205.935 Y33.596 E1.77061
G1 X205.401 Y33.596 E.01674
M73 Q1 S343
G1 X245.843 Y74.037 E1.79428
G1 X245.843 Y74.571 E.01674
G1 X204.868 Y33.596 E1.81795
G1 X204.334 Y33.596 E.01674
G1 X245.843 Y75.104 E1.84163
G1 X245.843 Y75.638 E.01674
G1 X203.8 Y33.596 E1.8653
G1 X203.267 Y33.596 E.01674
G1 X245.843 Y76.172 E1.88897
G1 X245.843 Y76.705 E.01674
G1 X202.733 Y33.596 E1.91265
G1 X202.2 Y33.596 E.01674
G1 X245.843 Y77.239 E1.93632
G1 X245.843 Y77.772 E.01674
G1 X201.666 Y33.596 E1.95999
G1 X201.132 Y33.596 E.01674
G1 X245.843 Y78.306 E1.98367
G1 X245.843 Y78.839 E.01674
M73 P1 R341
G1 X200.599 Y33.596 E2.00734
G1 X200.065 Y33.596 E.01674
G1 X245.843 Y79.373 E2.03101
G1 X245.843 Y79.907 E.01674
G1 X199.532 Y33.596 E2.05469
G1 X198.998 Y33.596 E.01674
G1 X245.843 Y80.44 E2.07836
G1 X245.843 Y80.974 E.01674
G1 X198.465 Y33.596 E2.10203
G1 X197.931 Y33.596 E.01674
G1 X245.843 Y81.507 E2.12571
G1 X245.843 Y82.041 E.01674
G1 X197.397 Y33.596 E2.14938
G1 X196.864 Y33.596 E.01674
G1 X245.843 Y82.575 E2.17305
G1 X245.843 Y83.108 E.01674
G1 X196.33 Y33.596 E2.19673
G1 X195.797 Y33.596 E.01674
G1 X245.843 Y83.642 E2.2204
G1 X245.843 Y84.175 E.01674
M73 Q1 S342
G1 X195.263 Y33.596 E2.24407
G1 X194.73 Y33.596 E.01674
G1 X245.843 Y84.709 E2.26774
G1 X245.843 Y85.242 E.01674
G1 X194.196 Y33.596 E2.29142
G1 X193.662 Y33.596 E.01674
G1 X245.843 Y85.776 E2.31509
G1 X245.843 Y86.31 E.01674
G1 X193.129 Y33.596 E2.33876
G1 X192.595 Y33.596 E.01674
G1 X245.843 Y86.843 E2.36244
G1 X245.843 Y87.377 E.01674
G1 X192.062 Y33.596 E2.38611
G1 X191.528 Y33.596 E.01674
M73 P1 R340
G1 X245.843 Y87.91 E2.40978
G1 X245.843 Y88.444 E.01674
G1 X190.994 Y33.596 E2.43346
G1 X190.461 Y33.596 E.01674
G1 X245.843 Y88.977 E2.45713
G1 X245.843 Y89.511 E.01674
G1 X189.927 Y33.596 E2.4808
G1 X189.394 Y33.596 E.01674
G1 X245.843 Y90.045 E2.50448
G1 X245.843 Y90.578 E.01674
G1 X188.86 Y33.596 E2.52815
G1 X188.327 Y33.596 E.01674
G1 X245.843 Y91.112 E2.55182
G1 X245.843 Y91.645 E.01674
G1 X187.793 Y33.596 E2.5755
G1 X187.259 Y33.596 E.01674
M73 Q1 S341
G1 X245.843 Y92.179 E2.59917
G1 X245.843 Y92.712 E.01674
G1 X186.726 Y33.596 E2.62284
G1 X186.192 Y33.596 E.01674
G1 X245.843 Y93.246 E2.64652
G1 X245.843 Y93.78 E.01674
G1 X185.659 Y33.596 E2.67019
G1 X185.125 Y33.596 E.01674
G1 X245.843 Y94.313 E2.69386
G1 X245.843 Y94.847 E.01674
G1 X184.592 Y33.596 E2.71754
G1 X184.058 Y33.596 E.01674
M73 P2 R340
M73 Q2 S341
G1 X245.843 Y95.38 E2.74121
G1 X245.843 Y95.914 E.01674
M73 P2 R339
G1 X183.524 Y33.596 E2.76488
G1 X182.991 Y33.596 E.01674
G1 X245.843 Y96.448 E2.78856
G1 X245.843 Y96.981 E.01674
G1 X182.457 Y33.596 E2.81223
G1 X181.924 Y33.596 E.01674
G1 X245.843 Y97.515 E2.8359
G1 X245.843 Y98.048 E.01674
G1 X181.39 Y33.596 E2.85958
G1 X180.857 Y33.596 E.01674
G1 X245.843 Y98.582 E2.88325
G1 X245.843 Y99.115 E.01674
G1 X180.323 Y33.596 E2.90692
G1 X180.165 Y33.596 E.00494
M73 Q2 S340
G1 X180.165 Y33.972 E.0118
G1 X245.467 Y99.273 E2.89723
G1 X244.933 Y99.273 E.01674
G1 X180.165 Y34.505 E2.87356
G1 X180.165 Y35.039 E.01674
G1 X244.4 Y99.273 E2.84989
G1 X243.866 Y99.273 E.01674
G1 X180.165 Y35.572 E2.82621
G1 X180.165 Y36.106 E.01674
G1 X243.332 Y99.273 E2.80254
G1 X242.799 Y99.273 E.01674
G1 X180.165 Y36.64 E2.77887
G1 X180.165 Y37.173 E.01674
M73 P2 R338
G1 X242.265 Y99.273 E2.75519
G1 X241.732 Y99.273 E.01674
G1 X180.165 Y37.707 E2.73152
G1 X180.165 Y38.24 E.01674
G1 X241.198 Y99.273 E2.70785
G1 X240.665 Y99.273 E.01674
G1 X180.165 Y38.774 E2.68417
G1 X180.165 Y39.307 E.01674
G1 X240.131 Y99.273 E2.6605
G1 X239.597 Y99.273 E.01674
G1 X180.165 Y39.841 E2.63683
G1 X180.165 Y40.375 E.01674
G1 X239.064 Y99.273 E2.61315
G1 X238.53 Y99.273 E.01674
G1 X180.165 Y40.908 E2.58948
G1 X180.165 Y41.442 E.01674
M73 Q2 S339
G1 X237.997 Y99.273 E2.56581
G1 X237.463 Y99.273 E.01674
G1 X180.165 Y41.975 E2.54213
G1 X180.165 Y42.509 E.01674
G1 X236.929 Y99.273 E2.51846
G1 X236.396 Y99.273 E.01674
G1 X180.165 Y43.042 E2.49479
G1 X180.165 Y43.576 E.01674
G1 X235.862 Y99.273 E2.47111
G1 X235.329 Y99.273 E.01674
G1 X180.165 Y44.11 E2.44744
G1 X180.165 Y44.643 E.01674
M73 P2 R337
G1 X234.795 Y99.273 E2.42377
G1 X234.262 Y99.273 E.01674
G1 X180.165 Y45.177 E2.40009
G1 X180.165 Y45.71 E.01674
G1 X233.728 Y99.273 E2.37642
G1 X233.194 Y99.273 E.01674
G1 X180.165 Y46.244 E2.35275
G1 X180.165 Y46.777 E.01674
G1 X232.661 Y99.273 E2.32907
G1 X232.127 Y99.273 E.01674
G1 X180.165 Y47.311 E2.3054
G1 X180.165 Y47.845 E.01674
G1 X231.594 Y99.273 E2.28173
G1 X231.06 Y99.273 E.01674
G1 X180.165 Y48.378 E2.25805
G1 X180.165 Y48.912 E.01674
G1 X230.527 Y99.273 E2.23438
G1 X229.993 Y99.273 E.01674
M73 Q2 S338
G1 X180.165 Y49.445 E2.21071
G1 X180.165 Y49.979 E.01674
G1 X229.459 Y99.273 E2.18703
G1 X228.926 Y99.273 E.01674
G1 X180.165 Y50.513 E2.16336
G1 X180.165 Y51.046 E.01674
G1 X228.392 Y99.273 E2.13969
G1 X227.859 Y99.273 E.01674
G1 X180.165 Y51.58 E2.11601
G1 X180.165 Y52.113 E.01674
G1 X227.325 Y99.273 E2.09234
G1 X226.792 Y99.273 E.01674
G1 X180.165 Y52.647 E2.06867
G1 X180.165 Y53.18 E.01674
G1 X226.258 Y99.273 E2.04499
G1 X225.724 Y99.273 E.01674
M73 P2 R336
G1 X180.165 Y53.714 E2.02132
G1 X180.165 Y54.248 E.01674
G1 X225.191 Y99.273 E1.99765
G1 X224.657 Y99.273 E.01674
G1 X180.165 Y54.781 E1.97397
G1 X180.165 Y55.315 E.01674
G1 X224.124 Y99.273 E1.9503
G1 X223.59 Y99.273 E.01674
G1 X180.165 Y55.848 E1.92663
G1 X180.165 Y56.382 E.01674
G1 X223.056 Y99.273 E1.90295
G1 X222.523 Y99.273 E.01674
G1 X180.165 Y56.915 E1.87928
G1 X180.165 Y57.449 E.01674
M73 P3 R336
G1 X221.989 Y99.273 E1.85561
G1 X221.456 Y99.273 E.01674
M73 Q3 S338
G1 X180.165 Y57.983 E1.83193
G1 X180.165 Y58.516 E.01674
G1 X220.922 Y99.273 E1.80826
G1 X220.389 Y99.273 E.01674
M73 Q3 S337
G1 X180.165 Y59.05 E1.78459
G1 X180.165 Y59.583 E.01674
G1 X219.855 Y99.273 E1.76091
G1 X219.321 Y99.273 E.01674
G1 X180.165 Y60.117 E1.73724
G1 X180.165 Y60.65 E.01674
G1 X218.788 Y99.273 E1.71357
G1 X218.254 Y99.273 E.01674
G1 X180.165 Y61.184 E1.68989
G1 X180.165 Y61.718 E.01674
G1 X217.721 Y99.273 E1.66622
G1 X217.187 Y99.273 E.01674
G1 X180.165 Y62.251 E1.64255
G1 X180.165 Y62.785 E.01674
G1 X216.654 Y99.273 E1.61887
G1 X216.12 Y99.273 E.01674
G1 X180.165 Y63.318 E1.5952
G1 X180.165 Y63.852 E.01674
G1 X215.586 Y99.273 E1.57153
G1 X215.053 Y99.273 E.01674
M73 P3 R335
G1 X180.165 Y64.386 E1.54785
G1 X180.165 Y64.919 E.01674
G1 X214.519 Y99.273 E1.52418
G1 X213.986 Y99.273 E.01674
G1 X180.165 Y65.453 E1.50051
G1 X180.165 Y65.986 E.01674
G1 X213.452 Y99.273 E1.47683
G1 X212.919 Y99.273 E.01674
G1 X180.165 Y66.52 E1.45316
G1 X180.165 Y67.053 E.01674
G1 X212.385 Y99.273 E1.42949
G1 X211.851 Y99.273 E.01674
G1 X180.165 Y67.587 E1.40581
G1 X180.165 Y68.121 E.01674
G1 X211.318 Y99.273 E1.38214
G1 X210.784 Y99.273 E.01674
G1 X180.165 Y68.654 E1.35847
G1 X180.165 Y69.188 E.01674
G1 X210.251 Y99.273 E1.3348
G1 X209.717 Y99.273 E.01674
G1 X180.165 Y69.721 E1.31112
G1 X180.165 Y70.255 E.01674
G1 X209.183 Y99.273 E1.28745
G1 X208.65 Y99.273 E.01674
G1 X180.165 Y70.788 E1.26378
G1 X180.165 Y71.322 E.01674
G1 X208.116 Y99.273 E1.2401
G1 X207.583 Y99.273 E.01674
G1 X180.165 Y71.856 E1.21643
G1 X180.165 Y72.389 E.01674
M73 Q3 S336
G1 X207.049 Y99.273 E1.19276
