; generated by PrusaSlicer 2.4.1+linux-x64-GTK2 on 2022-10-10 at 07:50:39 UTC


;
;
; 

; external perimeters extrusion width = 0.45mm
; perimeters extrusion width = 0.45mm
; infill extrusion width = 0.45mm
; solid infill extrusion width = 0.45mm
; top infill extrusion width = 0.40mm
; first layer extrusion width = 0.42mm

M73 P0 R347
M73 Q0 S349
M201 X1000 Y1000 Z200 E5000 ; sets maximum accelerations, mm/sec^2
M203 X200 Y200 Z12 E120 ; sets maximum feedrates, mm / sec
M204 P1250 R1250 T1250 ; sets acceleration (P, T) and retract acceleration (R), mm/sec^2
M205 X8.00 Y8.00 Z0.40 E4.50 ; sets the jerk limits, mm/sec
M205 S0 T0 ; sets the minimum extruding and travel feed rate, mm/sec
M107
;TYPE:Custom
M862.3 P "MK3S" ; printer model check
M862.1 P0.4 ; nozzle diameter check
M115 U3.11.0 ; tell printer latest fw version
G90 ; use absolute coordinates
M83 ; extruder relative mode
M104 S215 ; set extruder temp
M140 S60 ; set bed temp
M190 S60 ; wait for bed temp
M109 S215 ; wait for extruder temp
G28 W ; home all without mesh bed level
G80 ; mesh bed leveling
G1 Z0.2 F720
G1 Y-3 F1000 ; go outside print area
G92 E0
G1 X60 E9 F1000 ; intro line
G1 X100 E12.5 F1000 ; intro line
G92 E0
M221 S95

; Don't change E values below. Excessive value can damage the printer.
M907 E430 ; set extruder motor current
G21 ; set units to millimeters
G90 ; use absolute coordinates
M83 ; use relative distances for extrusion
M900 K0.05 ; Filament gcode LA 1.5
M900 K30 ; Filament gcode LA 1.0
M107
;LAYER_CHANGE
;Z:0.2
;HEIGHT:0.2
;BEFORE_LAYER_CHANGE
G92 E0.0
;0.2


G1 E-.8 F2100
G1 Z.4 F720
;AFTER_LAYER_CHANGE
;0.2
G1 X3.087 Y30.149 F10800
G1 Z.2 F720
G1 E.8 F2100
M204 S800
;TYPE:Skirt/Brim
;WIDTH:0.42
G1 F1200
G1 X161.327 Y30.149 E4.9615
G1 X162.273 Y30.345 E.03028
G1 X247.858 Y67.453 E2.92484
G1 X248.902 Y68.332 E.04278
G1 X249.29 Y69.634 E.04259
G1 X249.29 Y137.451 E2.12636
G1 X248.898 Y138.758 E.04278
G1 X247.92 Y139.604 E.04056
G1 X162.333 Y179.628 E2.96243
G1 X161.326 Y179.851 E.03234
G1 X93.509 Y179.851 E2.12636
G1 X91.966 Y179.283 E.05155
G1 X1.545 Y102.151 E3.72646
G1 X.71 Y100.343 E.06245
M73 Q0 S348
G1 X.71 Y32.526 E2.12636
G1 X1.102 Y31.219 E.04278
G1 X2.148 Y30.342 E.04278
G1 X3.029 Y30.161 E.0282
M204 S1000
; printing object FOUR_CONTAINERS_VOCHOZKA.STL id:0 copy 0
;WIPE_START
G1 F8640
G1 X6.32 Y30.161 E-.76
;WIPE_END
G1 E-.04 F2100
G1 Z.6 F720
G1 X3.874 Y33.313 F10800
G1 Z.2 F720
G1 E.8 F2100
M204 S800
;TYPE:Perimeter
G1 F1200
G1 X70.117 Y33.313 E2.077
G1 X70.117 Y78.524 E1.41757
M73 P0 R346
G1 X77.343 Y78.524 E.22655
G1 X77.343 Y41.074 E1.17423
G1 X94.297 Y41.074 E.53159
G1 X94.297 Y33.313 E.24334
G1 X160.54 Y33.313 E2.077
G1 X160.54 Y78.524 E1.41757
G1 X179.883 Y78.524 E.60647
G1 X179.883 Y70.421 E.25408
G1 X246.126 Y70.421 E2.077
G1 X246.126 Y136.664 E2.077
G1 X179.883 Y136.664 E2.077
G1 X179.883 Y128.973 E.24114
G1 X160.539 Y128.973 E.60651
G1 X160.539 Y176.687 E1.49605
G1 X94.296 Y176.687 E2.077
G1 X94.296 Y110.444 E2.077
G1 X160.539 Y110.444 E2.077
G1 X160.539 Y119.244 E.27592
G1 X179.883 Y119.244 E.60651
G1 X179.883 Y88.253 E.97171
G1 X160.54 Y88.253 E.60647
G1 X160.54 Y99.556 E.35439
G1 X94.297 Y99.556 E2.077
G1 X94.297 Y50.802 E1.52863
G1 X87.072 Y50.802 E.22655
G1 X87.072 Y88.253 E1.17423
G1 X70.117 Y88.253 E.53159
M73 Q0 S347
G1 X70.117 Y99.556 E.35439
G1 X3.874 Y99.556 E2.077
G1 X3.874 Y33.373 E2.07512
M204 S1000
G1 X3.497 Y32.936 F10800
M204 S800
;TYPE:External perimeter
G1 F1200
G1 X70.494 Y32.936 E2.10065
G1 X70.494 Y78.147 E1.41757
M73 P0 R345
G1 X76.966 Y78.147 E.20291
G1 X76.966 Y40.697 E1.17423
G1 X93.92 Y40.697 E.53159
G1 X93.92 Y32.936 E.24334
G1 X160.917 Y32.936 E2.10065
G1 X160.917 Y78.147 E1.41757
G1 X179.506 Y78.147 E.58282
G1 X179.506 Y70.044 E.25408
G1 X246.503 Y70.044 E2.10065
G1 X246.503 Y137.041 E2.10065
G1 X179.506 Y137.041 E2.10065
G1 X179.506 Y129.35 E.24114
G1 X160.916 Y129.35 E.58286
G1 X160.916 Y177.064 E1.49605
G1 X93.919 Y177.064 E2.10065
G1 X93.919 Y110.067 E2.10065
G1 X160.916 Y110.067 E2.10065
G1 X160.916 Y118.867 E.27592
G1 X179.506 Y118.867 E.58286
G1 X179.506 Y88.63 E.94807
G1 X160.917 Y88.63 E.58282
G1 X160.917 Y99.933 E.35439
G1 X93.92 Y99.933 E2.10065
G1 X93.92 Y51.179 E1.52863
G1 X87.449 Y51.179 E.20291
G1 X87.449 Y88.63 E1.17423
G1 X70.494 Y88.63 E.53159
M73 Q0 S346
G1 X70.494 Y99.933 E.35439
G1 X3.497 Y99.933 E2.10065
G1 X3.497 Y32.996 E2.09877
M204 S1000
G1 X3.884 Y33.039 F10800
;WIPE_START
M73 P0 R344
G1 F8640
G1 X6.789 Y32.993 E-.76
;WIPE_END
G1 E-.04 F2100
G1 Z.6 F720
G1 X246.012 Y71.296 F10800
G1 Z.2 F720
G1 E.8 F2100
M204 S800
;TYPE:Solid infill
;WIDTH:0.420148
G1 F1200
G1 X245.42 Y70.704 E.0263
G1 X244.886 Y70.704 E.01673
G1 X245.843 Y71.66 E.04244
G1 X245.843 Y72.194 E.01673
G1 X244.353 Y70.704 E.0661
G1 X243.819 Y70.704 E.01673
G1 X245.843 Y72.727 E.08977
G1 X245.843 Y73.261 E.01673
G1 X243.286 Y70.704 E.11343
G1 X242.752 Y70.704 E.01673
G1 X245.843 Y73.794 E.1371
G1 X245.843 Y74.328 E.01673
G1 X242.219 Y70.704 E.16076
G1 X241.685 Y70.704 E.01673
G1 X245.843 Y74.861 E.18443
G1 X245.843 Y75.395 E.01673
G1 X241.152 Y70.704 E.20809
G1 X240.618 Y70.704 E.01673
G1 X245.843 Y75.928 E.23176
G1 X245.843 Y76.462 E.01673
G1 X240.085 Y70.704 E.25542
G1 X239.551 Y70.704 E.01673
G1 X245.843 Y76.995 E.27909
G1 X245.843 Y77.529 E.01673
G1 X239.018 Y70.704 E.30275
G1 X238.484 Y70.704 E.01673
G1 X245.843 Y78.062 E.32642
G1 X245.843 Y78.596 E.01673
G1 X237.951 Y70.704 E.35008
G1 X237.417 Y70.704 E.01673
G1 X245.843 Y79.129 E.37374
G1 X245.843 Y79.662 E.01673
G1 X236.884 Y70.704 E.39741
G1 X236.35 Y70.704 E.01673
G1 X245.843 Y80.196 E.42107
G1 X245.843 Y80.729 E.01673
G1 X235.817 Y70.704 E.44474
G1 X235.283 Y70.704 E.01673
G1 X245.843 Y81.263 E.4684
G1 X245.843 Y81.796 E.01673
G1 X234.75 Y70.704 E.49207
G1 X234.216 Y70.704 E.01673
G1 X245.843 Y82.33 E.51573
G1 X245.843 Y82.863 E.01673
G1 X233.683 Y70.704 E.5394
G1 X233.149 Y70.704 E.01673
G1 X245.843 Y83.397 E.56306
G1 X245.843 Y83.93 E.01673
G1 X232.616 Y70.704 E.58673
G1 X232.082 Y70.704 E.01673
G1 X245.843 Y84.464 E.61039
G1 X245.843 Y84.997 E.01673
G1 X231.549 Y70.704 E.63406
G1 X231.016 Y70.704 E.01673
G1 X245.843 Y85.531 E.65772
G1 X245.843 Y86.064 E.01673
G1 X230.482 Y70.704 E.68139
G1 X229.949 Y70.704 E.01673
G1 X245.843 Y86.598 E.70505
G1 X245.843 Y87.131 E.01673
G1 X229.415 Y70.704 E.72872
G1 X228.882 Y70.704 E.01673
G1 X245.843 Y87.665 E.75238
G1 X245.843 Y88.198 E.01673
G1 X228.348 Y70.704 E.77605
G1 X227.815 Y70.704 E.01673
G1 X245.843 Y88.732 E.79971
G1 X245.843 Y89.265 E.01673
G1 X227.281 Y70.704 E.82337
G1 X226.748 Y70.704 E.01673
G1 X245.843 Y89.799 E.84704
G1 X245.843 Y90.332 E.01673
G1 X226.214 Y70.704 E.8707
G1 X225.681 Y70.704 E.01673
G1 X245.843 Y90.866 E.89437
G1 X245.843 Y91.399 E.01673
G1 X225.147 Y70.704 E.91803
G1 X224.614 Y70.704 E.01673
G1 X245.843 Y91.933 E.9417
G1 X245.843 Y92.466 E.01673
G1 X224.08 Y70.704 E.96536
G1 X223.547 Y70.704 E.01673
G1 X245.843 Y93 E.98903
G1 X245.843 Y93.533 E.01673
G1 X223.013 Y70.704 E1.01269
G1 X222.48 Y70.704 E.01673
G1 X245.843 Y94.066 E1.03636
G1 X245.843 Y94.6 E.01673
G1 X221.946 Y70.704 E1.06002
G1 X221.413 Y70.704 E.01673
G1 X245.843 Y95.133 E1.08369
G1 X245.843 Y95.667 E.01673
G1 X220.879 Y70.704 E1.10735
G1 X220.346 Y70.704 E.01673
M73 Q1 S346
G1 X245.843 Y96.2 E1.13102
G1 X245.843 Y96.734 E.01673
M73 P1 R344
G1 X219.812 Y70.704 E1.15468
G1 X219.279 Y70.704 E.01673
G1 X245.843 Y97.267 E1.17835
G1 X245.843 Y97.801 E.01673
M73 Q1 S345
G1 X218.745 Y70.704 E1.20201
G1 X218.212 Y70.704 E.01673
G1 X245.843 Y98.334 E1.22568
G1 X245.843 Y98.868 E.01673
G1 X217.679 Y70.704 E1.24934
G1 X217.145 Y70.704 E.01673
G1 X245.843 Y99.401 E1.273
G1 X245.843 Y99.935 E.01673
M73 P1 R343
G1 X216.612 Y70.704 E1.29667
G1 X216.078 Y70.704 E.01673
G1 X245.843 Y100.468 E1.32033
G1 X245.843 Y101.002 E.01673
G1 X215.545 Y70.704 E1.344
G1 X215.011 Y70.704 E.01673
G1 X245.843 Y101.535 E1.36766
G1 X245.843 Y102.069 E.01673
G1 X214.478 Y70.704 E1.39133
G1 X213.944 Y70.704 E.01673
G1 X245.843 Y102.602 E1.41499
G1 X245.843 Y103.136 E.01673
G1 X213.411 Y70.704 E1.43866
G1 X212.877 Y70.704 E.01673
G1 X245.843 Y103.669 E1.46232
G1 X245.843 Y104.203 E.01673
G1 X212.344 Y70.704 E1.48599
G1 X211.81 Y70.704 E.01673
G1 X245.843 Y104.736 E1.50965
G1 X245.843 Y105.27 E.01673
G1 X211.277 Y70.704 E1.53332
G1 X210.743 Y70.704 E.01673
G1 X245.843 Y105.803 E1.55698
G1 X245.843 Y106.337 E.01673
G1 X210.21 Y70.704 E1.58065
G1 X209.676 Y70.704 E.01673
G1 X245.843 Y106.87 E1.60431
G1 X245.843 Y107.403 E.01673
G1 X209.143 Y70.704 E1.62798
G1 X208.609 Y70.704 E.01673
G1 X245.843 Y107.937 E1.65164
G1 X245.843 Y108.47 E.01673
G1 X208.076 Y70.704 E1.67531
G1 X207.542 Y70.704 E.01673
G1 X245.843 Y109.004 E1.69897
G1 X245.843 Y109.537 E.01673
G1 X207.009 Y70.704 E1.72264
G1 X206.475 Y70.704 E.01673
G1 X245.843 Y110.071 E1.7463
G1 X245.843 Y110.604 E.01673
G1 X205.942 Y70.704 E1.76996
G1 X205.408 Y70.704 E.01673
M73 Q1 S344
G1 X245.843 Y111.138 E1.79363
G1 X245.843 Y111.671 E.01673
G1 X204.875 Y70.704 E1.81729
G1 X204.341 Y70.704 E.01673
G1 X245.843 Y112.205 E1.84096
G1 X245.843 Y112.738 E.01673
M73 P1 R342
G1 X203.808 Y70.704 E1.86462
G1 X203.275 Y70.704 E.01673
G1 X245.843 Y113.272 E1.88829
G1 X245.843 Y113.805 E.01673
G1 X202.741 Y70.704 E1.91195
G1 X202.208 Y70.704 E.01673
G1 X245.843 Y114.339 E1.93562
G1 X245.843 Y114.872 E.01673
G1 X201.674 Y70.704 E1.95928
G1 X201.141 Y70.704 E.01673
G1 X245.843 Y115.406 E1.98295
G1 X245.843 Y115.939 E.01673
G1 X200.607 Y70.704 E2.00661
G1 X200.074 Y70.704 E.01673
G1 X245.843 Y116.473 E2.03028
G1 X245.843 Y117.006 E.01673
G1 X199.54 Y70.704 E2.05394
G1 X199.007 Y70.704 E.01673
G1 X245.843 Y117.54 E2.07761
G1 X245.843 Y118.073 E.01673
G1 X198.473 Y70.704 E2.10127
G1 X197.94 Y70.704 E.01673
G1 X245.843 Y118.607 E2.12494
G1 X245.843 Y119.14 E.01673
G1 X197.406 Y70.704 E2.1486
G1 X196.873 Y70.704 E.01673
G1 X245.843 Y119.674 E2.17227
G1 X245.843 Y120.207 E.01673
G1 X196.339 Y70.704 E2.19593
G1 X195.806 Y70.704 E.01673
G1 X245.843 Y120.741 E2.21959
G1 X245.843 Y121.274 E.01673
M73 Q1 S343
G1 X195.272 Y70.704 E2.24326
G1 X194.739 Y70.704 E.01673
G1 X245.843 Y121.807 E2.26692
G1 X245.843 Y122.341 E.01673
M73 P1 R341
G1 X194.205 Y70.704 E2.29059
G1 X193.672 Y70.704 E.01673
G1 X245.843 Y122.874 E2.31425
G1 X245.843 Y123.408 E.01673
G1 X193.138 Y70.704 E2.33792
G1 X192.605 Y70.704 E.01673
G1 X245.843 Y123.941 E2.36158
G1 X245.843 Y124.475 E.01673
G1 X192.071 Y70.704 E2.38525
G1 X191.538 Y70.704 E.01673
G1 X245.843 Y125.008 E2.40891
G1 X245.843 Y125.542 E.01673
G1 X191.004 Y70.704 E2.43258
G1 X190.471 Y70.704 E.01673
G1 X245.843 Y126.075 E2.45624
G1 X245.843 Y126.609 E.01673
G1 X189.937 Y70.704 E2.47991
G1 X189.404 Y70.704 E.01673
G1 X245.843 Y127.142 E2.50357
G1 X245.843 Y127.676 E.01673
G1 X188.871 Y70.704 E2.52724
G1 X188.337 Y70.704 E.01673
G1 X245.843 Y128.209 E2.5509
G1 X245.843 Y128.743 E.01673
G1 X187.804 Y70.704 E2.57457
G1 X187.27 Y70.704 E.01673
M73 Q1 S342
G1 X245.843 Y129.276 E2.59823
G1 X245.843 Y129.81 E.01673
G1 X186.737 Y70.704 E2.6219
G1 X186.203 Y70.704 E.01673
M73 P1 R340
G1 X245.843 Y130.343 E2.64556
G1 X245.843 Y130.877 E.01673
G1 X185.67 Y70.704 E2.66923
G1 X185.136 Y70.704 E.01673
G1 X245.843 Y131.41 E2.69289
G1 X245.843 Y131.944 E.01673
G1 X184.603 Y70.704 E2.71655
G1 X184.069 Y70.704 E.01673
M73 P2 R340
M73 Q2 S342
G1 X245.843 Y132.477 E2.74022
G1 X245.843 Y133.011 E.01673
G1 X183.536 Y70.704 E2.76388
G1 X183.002 Y70.704 E.01673
G1 X245.843 Y133.544 E2.78755
G1 X245.843 Y134.078 E.01673
G1 X182.469 Y70.704 E2.81121
G1 X181.935 Y70.704 E.01673
G1 X245.843 Y134.611 E2.83488
G1 X245.843 Y135.145 E.01673
G1 X181.402 Y70.704 E2.85854
G1 X180.868 Y70.704 E.01673
G1 X245.843 Y135.678 E2.88221
G1 X245.843 Y136.211 E.01673
G1 X180.335 Y70.704 E2.90587
G1 X180.165 Y70.704 E.00531
M73 Q2 S341
G1 X180.165 Y71.068 E.01142
G1 X245.479 Y136.381 E2.89724
G1 X244.945 Y136.381 E.01673
G1 X180.165 Y71.601 E2.87358
G1 X180.165 Y72.135 E.01673
M73 P2 R339
G1 X244.412 Y136.381 E2.84991
G1 X243.878 Y136.381 E.01673
G1 X180.165 Y72.668 E2.82625
G1 X180.165 Y73.202 E.01673
G1 X243.345 Y136.381 E2.80258
G1 X242.811 Y136.381 E.01673
G1 X180.165 Y73.735 E2.77892
G1 X180.165 Y74.268 E.01673
G1 X242.278 Y136.381 E2.75525
G1 X241.744 Y136.381 E.01673
G1 X180.165 Y74.802 E2.73159
G1 X180.165 Y75.335 E.01673
G1 X241.211 Y136.381 E2.70792
G1 X240.677 Y136.381 E.01673
G1 X180.165 Y75.869 E2.68426
G1 X180.165 Y76.402 E.01673
G1 X240.144 Y136.381 E2.66059
G1 X239.61 Y136.381 E.01673
G1 X180.165 Y76.936 E2.63693
G1 X180.165 Y77.469 E.01673
G1 X239.077 Y136.381 E2.61326
G1 X238.543 Y136.381 E.01673
M73 Q2 S340
G1 X180.165 Y78.003 E2.5896
G1 X180.165 Y78.536 E.01673
G1 X238.01 Y136.381 E2.56593
G1 X237.476 Y136.381 E.01673
G1 X179.903 Y78.807 E2.55393
G1 X179.369 Y78.807 E.01673
M73 P2 R338
G1 X236.943 Y136.381 E2.55393
G1 X236.41 Y136.381 E.01673
G1 X178.836 Y78.807 E2.55393
G1 X178.302 Y78.807 E.01673
G1 X235.876 Y136.381 E2.55393
G1 X235.343 Y136.381 E.01673
G1 X177.769 Y78.807 E2.55393
G1 X177.235 Y78.807 E.01673
G1 X234.809 Y136.381 E2.55393
G1 X234.276 Y136.381 E.01673
G1 X176.702 Y78.807 E2.55393
G1 X176.168 Y78.807 E.01673
G1 X233.742 Y136.381 E2.55393
G1 X233.209 Y136.381 E.01673
G1 X175.635 Y78.807 E2.55393
G1 X175.101 Y78.807 E.01673
G1 X232.675 Y136.381 E2.55393
G1 X232.142 Y136.381 E.01673
G1 X174.568 Y78.807 E2.55393
G1 X174.034 Y78.807 E.01673
G1 X231.608 Y136.381 E2.55393
G1 X231.075 Y136.381 E.01673
G1 X173.501 Y78.807 E2.55393
G1 X172.967 Y78.807 E.01673
M73 Q2 S339
G1 X230.541 Y136.381 E2.55393
G1 X230.008 Y136.381 E.01673
G1 X172.434 Y78.807 E2.55393
G1 X171.9 Y78.807 E.01673
M73 P2 R337
G1 X229.474 Y136.381 E2.55393
G1 X228.941 Y136.381 E.01673
G1 X171.367 Y78.807 E2.55393
G1 X170.833 Y78.807 E.01673
G1 X228.407 Y136.381 E2.55393
G1 X227.874 Y136.381 E.01673
G1 X180.165 Y88.672 E2.1163
G1 X180.165 Y89.206 E.01673
G1 X227.34 Y136.381 E2.09264
G1 X226.807 Y136.381 E.01673
G1 X180.165 Y89.739 E2.06897
G1 X180.165 Y90.273 E.01673
G1 X226.273 Y136.381 E2.04531
G1 X225.74 Y136.381 E.01673
G1 X180.165 Y90.806 E2.02165
G1 X180.165 Y91.34 E.01673
G1 X225.206 Y136.381 E1.99798
G1 X224.673 Y136.381 E.01673
G1 X180.165 Y91.873 E1.97432
G1 X180.165 Y92.407 E.01673
G1 X224.139 Y136.381 E1.95065
G1 X223.606 Y136.381 E.01673
G1 X180.165 Y92.94 E1.92699
G1 X180.165 Y93.474 E.01673
G1 X223.072 Y136.381 E1.90332
G1 X222.539 Y136.381 E.01673
M73 P3 R337
M73 Q3 S339
G1 X180.165 Y94.007 E1.87966
G1 X180.165 Y94.541 E.01673
G1 X222.006 Y136.381 E1.85599
G1 X221.472 Y136.381 E.01673
M73 Q3 S338
G1 X180.165 Y95.074 E1.83233
G1 X180.165 Y95.608 E.01673
G1 X220.939 Y136.381 E1.80866
G1 X220.405 Y136.381 E.01673
G1 X180.165 Y96.141 E1.785
G1 X180.165 Y96.675 E.01673
M73 P3 R336
G1 X219.872 Y136.381 E1.76133
G1 X219.338 Y136.381 E.01673
G1 X180.165 Y97.208 E1.73767
G1 X180.165 Y97.742 E.01673
G1 X218.805 Y136.381 E1.714
G1 X218.271 Y136.381 E.01673
G1 X180.165 Y98.275 E1.69034
G1 X180.165 Y98.809 E.01673
G1 X217.738 Y136.381 E1.66667
G1 X217.204 Y136.381 E.01673
G1 X180.165 Y99.342 E1.64301
G1 X180.165 Y99.876 E.01673
G1 X216.671 Y136.381 E1.61934
G1 X216.137 Y136.381 E.01673
G1 X180.165 Y100.409 E1.59568
G1 X180.165 Y100.943 E.01673
G1 X215.604 Y136.381 E1.57201
G1 X215.07 Y136.381 E.01673
G1 X180.165 Y101.476 E1.54835
G1 X180.165 Y102.01 E.01673
G1 X214.537 Y136.381 E1.52469
G1 X214.003 Y136.381 E.01673
G1 X180.165 Y102.543 E1.50102
G1 X180.165 Y103.076 E.01673
G1 X213.47 Y136.381 E1.47736
G1 X212.936 Y136.381 E.01673
G1 X180.165 Y103.61 E1.45369
G1 X180.165 Y104.143 E.01673
G1 X212.403 Y136.381 E1.43003
G1 X211.869 Y136.381 E.01673
G1 X180.165 Y104.677 E1.40636
G1 X180.165 Y105.21 E.01673
G1 X211.336 Y136.381 E1.3827
G1 X210.802 Y136.381 E.01673
G1 X180.165 Y105.744 E1.35903
G1 X180.165 Y106.277 E.01673
G1 X210.269 Y136.381 E1.33537
G1 X209.735 Y136.381 E.01673
G1 X180.165 Y106.811 E1.3117
G1 X180.165 Y107.344 E.01673
M73 Q3 S337
G1 X209.202 Y136.381 E1.28804
G1 X208.669 Y136.381 E.01673
G1 X180.165 Y107.878 E1.26437
G1 X180.165 Y108.411 E.01673
G1 X208.135 Y136.381 E1.24071
