; generated by PrusaSlicer 2.4.1+linux-x64-GTK2 on 2022-09-07 at 18:26:59 UTC


;
;
; 

; external perimeters extrusion width = 0.45mm
; perimeters extrusion width = 0.45mm
; infill extrusion width = 0.45mm
; solid infill extrusion width = 0.45mm
; top infill extrusion width = 0.40mm
; support material extrusion width = 0.35mm
; first layer extrusion width = 0.42mm

M73 P0 R199
M73 Q0 S201
M201 X1000 Y1000 Z200 E5000 ; sets maximum accelerations, mm/sec^2
M203 X200 Y200 Z12 E120 ; sets maximum feedrates, mm / sec
M204 P1250 R1250 T1250 ; sets acceleration (P, T) and retract acceleration (R), mm/sec^2
M205 X8.00 Y8.00 Z0.40 E4.50 ; sets the jerk limits, mm/sec
M205 S0 T0 ; sets the minimum extruding and travel feed rate, mm/sec
M107
;TYPE:Custom
M862.3 P "MK3S" ; printer model check
M862.1 P0.4 ; nozzle diameter check
M115 U3.11.0 ; tell printer latest fw version
G90 ; use absolute coordinates
M83 ; extruder relative mode
M104 S215 ; set extruder temp
M140 S60 ; set bed temp
M190 S60 ; wait for bed temp
M109 S215 ; wait for extruder temp
G28 W ; home all without mesh bed level
G80 ; mesh bed leveling
G1 Z0.2 F720
G1 Y-3 F1000 ; go outside print area
G92 E0
G1 X60 E9 F1000 ; intro line
G1 X100 E12.5 F1000 ; intro line
G92 E0
M221 S95

; Don't change E values below. Excessive value can damage the printer.
M907 E430 ; set extruder motor current
G21 ; set units to millimeters
G90 ; use absolute coordinates
M83 ; use relative distances for extrusion
M900 K0.05 ; Filament gcode LA 1.5
M900 K30 ; Filament gcode LA 1.0
M107
;LAYER_CHANGE
;Z:0.2
;HEIGHT:0.2
;BEFORE_LAYER_CHANGE
G92 E0.0
;0.2


G1 E-.8 F2100
G1 Z.4 F720
;AFTER_LAYER_CHANGE
;0.2
G1 X25.393 Y67.068 F10800
G1 Z.2 F720
G1 E.8 F2100
M204 S800
;TYPE:Skirt/Brim
;WIDTH:0.42
G1 F1200
G1 X177.393 Y25.837 E4.93808
G1 X178.015 Y25.754 E.01968
G1 X211.84 Y25.754 E1.06056
G1 X213.521 Y26.451 E.05704
M73 Q0 S200
G1 X216.509 Y29.438 E.13247
G1 X217.205 Y31.119 E.05704
G1 X217.205 Y150.274 E3.736
G1 X216.673 Y151.772 E.04985
G1 X204.007 Y167.371 E.63005
G1 X200.855 Y170.541 E.14016
G1 X199.293 Y171.235 E.05356
G1 X59.84 Y178.251 E4.37798
G1 X26.015 Y178.251 E1.06056
G1 X24.334 Y177.555 E.05704
G1 X21.347 Y174.568 E.13247
G1 X20.651 Y172.887 E.05704
G1 X20.651 Y72.35 E3.15226
G1 X21.347 Y70.669 E.05704
G1 X24.334 Y67.682 E.13247
G1 X25.341 Y67.098 E.03648
M204 S1000
;WIPE_START
G1 F8640
G1 X28.518 Y66.236 E-.76
;WIPE_END
G1 E-.04 F2100
G1 Z.6 F720
G1 X26.337 Y69.986 F10800
G1 Z.2 F720
G1 E.8 F2100
M204 S800
G1 F1200
G1 X27.71 Y69.649 E.04433
G1 X58.162 Y69.649 E.95479
G1 X59.777 Y70.095 E.05253
G1 X60.857 Y70.793 E.04031
G1 X61.895 Y71.945 E.04862
G1 X62.515 Y71.052 E.03408
G1 X63.544 Y70.163 E.04263
G1 X64.397 Y69.747 E.02977
G1 X65.709 Y69.43 E.04231
G1 X96.165 Y69.43 E.95495
G1 X97.844 Y69.907 E.05471
G1 X98.837 Y70.557 E.0372
G1 X99.324 Y71.071 E.02223
G1 X99.372 Y62.916 E.25571
G1 X99.816 Y61.572 E.04438
G1 X100.613 Y60.436 E.0435
G1 X101.59 Y59.626 E.03979
G1 X102.199 Y59.315 E.02145
G1 X102.943 Y59.048 E.0248
G1 X134.194 Y58.931 E.97985
G1 X135.711 Y59.34 E.04925
M73 P0 R198
G1 X136.746 Y59.976 E.03809
G1 X137.315 Y60.551 E.02537
G1 X137.332 Y47.223 E.41789
G1 X137.648 Y46 E.0396
G1 X138.253 Y44.899 E.03939
G1 X139.193 Y43.955 E.04175
G1 X140.351 Y43.295 E.04179
G1 X141.709 Y42.966 E.0438
G1 X172.154 Y42.966 E.9546
G1 X173.796 Y43.42 E.05342
G1 X174.822 Y44.08 E.03824
G1 X175.314 Y44.589 E.0222
G1 X175.325 Y32.723 E.37204
G1 X175.629 Y31.501 E.03947
G1 X176.087 Y30.581 E.03221
G1 X177.023 Y29.552 E.04363
G1 X177.818 Y28.987 E.03057
G1 X179.681 Y28.418 E.06106
G1 X210.117 Y28.422 E.95432
G1 X211.137 Y28.616 E.03256
G1 X212.116 Y29.031 E.03332
G1 X213.24 Y29.927 E.04508
G1 X214.133 Y31.265 E.05044
G1 X214.541 Y32.81 E.05011
G1 X214.541 Y63.249 E.9544
G1 X214.226 Y64.562 E.04231
G1 X213.768 Y65.482 E.03223
G1 X212.832 Y66.512 E.04366
G1 X212.147 Y67.02 E.02674
G1 X210.172 Y67.645 E.06495
G1 X179.368 Y67.596 E.96584
G1 X178.026 Y67.176 E.0441
G1 X177.026 Y66.524 E.03742
G1 X176.541 Y66.04 E.02149
G1 X176.541 Y77.797 E.36864
G1 X176.211 Y79.152 E.04374
G1 X175.734 Y80.08 E.03271
G1 X174.902 Y80.976 E.03833
G1 X175.195 Y81.269 E.01298
G1 X176.647 Y81.269 E.04553
G1 X177.06 Y80.845 E.01855
G1 X177.833 Y80.317 E.02936
G1 X179.682 Y79.754 E.06058
G1 X210.146 Y79.754 E.95517
G1 X211.457 Y80.068 E.04229
G1 X212.477 Y80.596 E.03599
G1 X213.565 Y81.648 E.04745
G1 X214.155 Y82.657 E.03668
G1 X214.541 Y84.135 E.04787
G1 X214.541 Y114.619 E.95583
G1 X214.031 Y116.382 E.05752
G1 X214.1 Y116.522 E.0049
G1 X214.541 Y118.123 E.05206
G1 X214.541 Y148.456 E.95109
G1 X214.447 Y149.208 E.02377
G1 X213.941 Y150.52 E.04406
G1 X213.045 Y151.66 E.04547
G1 X211.895 Y152.472 E.04416
G1 X210.553 Y152.916 E.04432
G1 X201.875 Y152.969 E.2721
G1 X201.875 Y164.208 E.35237
G1 X201.252 Y166.177 E.06477
G1 X200.769 Y166.836 E.02562
G1 X200.047 Y167.554 E.03191
G1 X198.852 Y168.237 E.04316
G1 X197.479 Y168.574 E.04433
G1 X62.519 Y168.574 E4.23158
G1 X62.49 Y171.552 E.09339
G1 X62.038 Y172.945 E.04589
G1 X61.299 Y174.013 E.04074
G1 X60.294 Y174.864 E.04127
G1 X58.777 Y175.493 E.05151
G1 X58.023 Y175.588 E.02382
G1 X27.681 Y175.588 E.95136
G1 X25.711 Y174.965 E.06477
G1 X25.052 Y174.482 E.02562
G1 X24.334 Y173.76 E.03191
G1 X23.651 Y172.565 E.04316
G1 X23.314 Y171.192 E.04433
G1 X23.314 Y140.754 E.95435
G1 X23.696 Y139.268 E.0481
G1 X24.52 Y137.972 E.04816
G1 X25.126 Y137.402 E.0261
G1 X25.746 Y136.969 E.02372
G1 X27.197 Y136.439 E.04843
G1 X58.171 Y136.361 E.97115
G1 X60.035 Y136.929 E.06109
G1 X60.804 Y137.469 E.02949
G1 X61.314 Y138.004 E.02318
G1 X61.314 Y128.309 E.304
G1 X39.871 Y128.309 E.67235
M73 Q0 S199
G1 X37.973 Y127.723 E.06226
G1 X37.314 Y127.266 E.02515
G1 X36.648 Y126.623 E.02903
G1 X35.883 Y125.396 E.04533
G1 X35.504 Y123.914 E.04797
G1 X35.504 Y108.868 E.47176
G1 X27.222 Y108.804 E.25968
G1 X25.892 Y108.339 E.04418
G1 X24.823 Y107.575 E.04119
G1 X24.015 Y106.601 E.03968
G1 X23.701 Y105.984 E.02168
G1 X23.404 Y105.056 E.03056
G1 X23.314 Y74.021 E.9731
G1 X23.937 Y72.046 E.06493
G1 X24.421 Y71.387 E.02563
G1 X25.142 Y70.669 E.03191
G1 X26.285 Y70.016 E.04128
M204 S1000
G1 X26.47 Y70.344 F10800
M204 S800
G1 F1200
G1 X27.733 Y70.026 E.04082
G1 X58.137 Y70.026 E.95329
G1 X59.597 Y70.427 E.04747
G1 X60.631 Y71.096 E.03863
G1 X61.397 Y71.946 E.03586
G1 X61.912 Y72.911 E.03432
G1 X62.164 Y72.222 E.023
G1 X62.781 Y71.319 E.0343
G1 X63.733 Y70.49 E.03959
G1 X64.507 Y70.108 E.02708
G1 X65.732 Y69.807 E.03953
G1 X96.138 Y69.807 E.95338
G1 X97.71 Y70.261 E.0513
G1 X98.606 Y70.856 E.03372
G1 X99.697 Y72.06 E.05094
G1 X99.74 Y63.004 E.28395
G1 X100.142 Y61.763 E.04088
G1 X100.875 Y60.709 E.04026
G1 X101.781 Y59.951 E.03703
G1 X102.338 Y59.665 E.01963
G1 X103.04 Y59.414 E.0234
G1 X134.17 Y59.308 E.97607
G1 X135.537 Y59.675 E.04436
G1 X136.527 Y60.284 E.03643
G1 X137.304 Y61.095 E.03522
G1 X137.424 Y61.275 E.0068
G1 X137.692 Y61.195 E.00878
G1 X137.703 Y47.292 E.4359
G1 X137.991 Y46.158 E.03669
G1 X138.541 Y45.144 E.03618
G1 X139.404 Y44.269 E.03855
G1 X140.468 Y43.654 E.03851
G1 X141.732 Y43.343 E.04082
G1 X172.129 Y43.343 E.95309
G1 X173.616 Y43.752 E.04837
G1 X174.596 Y44.383 E.03652
G1 X175.691 Y45.566 E.05055
G1 X175.697 Y32.792 E.40053
G1 X175.99 Y31.613 E.03808
G1 X176.412 Y30.775 E.02941
G1 X177.288 Y29.821 E.04061
G1 X177.96 Y29.338 E.02595
G1 X179.709 Y28.795 E.05743
G1 X210.099 Y28.799 E.95284
G1 X211.045 Y28.982 E.03022
G1 X211.943 Y29.367 E.03062
G1 X212.981 Y30.203 E.0418
G1 X213.777 Y31.393 E.0449
G1 X214.164 Y32.835 E.04682
G1 X214.164 Y63.226 E.95289
G1 X213.866 Y64.451 E.03951
G1 X213.444 Y65.288 E.0294
G1 X212.567 Y66.243 E.04065
G1 X211.949 Y66.698 E.02407
G1 X210.143 Y67.268 E.05936
G1 X179.397 Y67.219 E.96403
G1 X178.21 Y66.846 E.03901
G1 X177.252 Y66.221 E.03588
G1 X176.645 Y65.591 E.02743
G1 X176.429 Y65.279 E.01189
G1 X176.164 Y65.361 E.0087
G1 X176.164 Y77.774 E.3892
G1 X175.865 Y78.999 E.03954
G1 X175.411 Y79.883 E.03117
G1 X174.376 Y80.984 E.04735
G1 X175.039 Y81.646 E.02938
G1 X176.809 Y81.646 E.05548
G1 X177.29 Y81.145 E.02177
G1 X178.022 Y80.644 E.02783
G1 X179.71 Y80.131 E.05529
G1 X210.123 Y80.131 E.95358
G1 X211.346 Y80.429 E.03949
G1 X212.235 Y80.886 E.03133
G1 X213.284 Y81.901 E.04576
G1 X213.798 Y82.779 E.0319
G1 X214.164 Y84.16 E.04478
G1 X214.164 Y114.592 E.95419
G1 X213.705 Y116.157 E.05115
G1 X213.586 Y116.366 E.00751
G1 X213.744 Y116.65 E.0102
G1 X214.164 Y118.149 E.0488
G1 X214.164 Y148.444 E.94989
G1 X214.076 Y149.137 E.02191
G1 X213.601 Y150.355 E.04099
G1 X212.768 Y151.403 E.04196
G1 X211.703 Y152.147 E.04073
G1 X210.465 Y152.549 E.04081
G1 X201.498 Y152.594 E.28116
G1 X201.498 Y164.179 E.36323
G1 X200.929 Y165.98 E.05923
G1 X200.492 Y166.58 E.02326
G1 X199.799 Y167.269 E.03063
G1 X198.69 Y167.896 E.03997
G1 X197.456 Y168.197 E.03981
G1 X62.145 Y168.197 E4.24258
G1 X62.114 Y171.52 E.10419
M73 P0 R197
G1 X61.712 Y172.752 E.04064
G1 X61.003 Y173.777 E.03908
G1 X60.075 Y174.556 E.038
G1 X58.704 Y175.122 E.0465
G1 X58.011 Y175.211 E.02191
G1 X27.71 Y175.211 E.95007
G1 X25.908 Y174.642 E.05923
G1 X25.309 Y174.205 E.02326
G1 X24.62 Y173.512 E.03063
G1 X23.992 Y172.403 E.03997
G1 X23.691 Y171.169 E.03981
G1 X23.691 Y140.778 E.95288
G1 X24.053 Y139.393 E.04491
G1 X24.795 Y138.231 E.04322
G1 X25.374 Y137.686 E.02493
G1 X25.942 Y137.292 E.02167
G1 X27.232 Y136.816 E.04311
G1 X58.143 Y136.738 E.96919
G1 X59.893 Y137.279 E.05744
G1 X60.568 Y137.763 E.02603
G1 X61.691 Y138.974 E.0518
G1 X61.691 Y127.932 E.34624
G1 X39.9 Y127.932 E.68326
G1 X38.115 Y127.373 E.05863
G1 X37.565 Y126.984 E.02113
G1 X36.955 Y126.403 E.0264
G1 X36.218 Y125.222 E.04364
G1 X35.881 Y123.891 E.04304
G1 X35.881 Y108.493 E.48278
G1 X27.315 Y108.437 E.26859
G1 X26.087 Y108.015 E.04071
G1 X25.096 Y107.313 E.03806
G1 X24.341 Y106.409 E.03695
G1 X24.054 Y105.851 E.01967
G1 X23.781 Y105.024 E.02731
G1 X23.691 Y74.049 E.97122
G1 X24.26 Y72.243 E.05936
M73 P1 R197
M73 Q1 S199
G1 X24.697 Y71.643 E.02326
G1 X25.39 Y70.954 E.03063
G1 X26.418 Y70.373 E.03704
M204 S1000
G1 X26.6 Y70.695 F10800
M204 S800
G1 F1200
G1 X27.756 Y70.403 E.03738
G1 X58.111 Y70.403 E.95174
G1 X59.466 Y70.782 E.04413
G1 X60.402 Y71.397 E.03513
G1 X61.099 Y72.178 E.03282
G1 X61.522 Y72.987 E.0286
G1 X61.62 Y73.32 E.0109
G1 X62.18 Y73.32 E.01756
G1 X62.491 Y72.412 E.03008
G1 X63.079 Y71.553 E.03266
G1 X63.96 Y70.791 E.03653
G1 X64.618 Y70.468 E.02298
G1 X65.755 Y70.184 E.03675
G1 X96.112 Y70.184 E.95181
G1 X97.526 Y70.591 E.04613
G1 X98.377 Y71.157 E.03205
G1 X99.106 Y71.969 E.03423
G1 X99.523 Y72.77 E.0283
G1 X99.676 Y73.32 E.01791
G1 X100.07 Y73.32 E.01236
G1 X100.108 Y63.09 E.32076
G1 X100.469 Y61.953 E.0374
G1 X101.138 Y60.98 E.03701
G1 X101.973 Y60.276 E.03426
G1 X102.477 Y60.016 E.01778
G1 X103.137 Y59.78 E.02198
G1 X134.146 Y59.685 E.97228
G1 X135.364 Y60.012 E.03954
G1 X136.272 Y60.563 E.03328
G1 X137.013 Y61.336 E.03359
G1 X137.431 Y62.046 E.02582
G1 X137.748 Y63.069 E.03358
G1 X138.068 Y63.02 E.01017
G1 X138.074 Y47.362 E.49095
G1 X138.35 Y46.273 E.03522
G1 X138.829 Y45.388 E.03156
G1 X139.617 Y44.581 E.03537
G1 X140.586 Y44.013 E.0352
G1 X141.755 Y43.72 E.03779
G1 X172.104 Y43.72 E.95156
G1 X173.437 Y44.085 E.04332
G1 X174.371 Y44.687 E.03484
G1 X175.053 Y45.43 E.03161
G1 X175.45 Y46.13 E.02524
G1 X175.749 Y47.082 E.03128
G1 X176.068 Y47.032 E.01015
G1 X176.068 Y32.86 E.44436
G1 X176.351 Y31.725 E.03667
G1 X176.735 Y30.97 E.02656
G1 X177.552 Y30.09 E.03764
G1 X178.104 Y29.688 E.02142
G1 X179.739 Y29.172 E.05376
G1 X210.08 Y29.176 E.95133
G1 X210.952 Y29.348 E.02785
G1 X211.768 Y29.702 E.0279
G1 X212.72 Y30.476 E.03848
G1 X213.445 Y31.575 E.04126
G1 X213.787 Y32.86 E.0417
G1 X213.787 Y63.203 E.95139
G1 X213.505 Y64.338 E.03667
G1 X213.12 Y65.093 E.02656
G1 X212.304 Y65.973 E.03764
G1 X211.752 Y66.375 E.02142
G1 X210.115 Y66.891 E.05381
G1 X179.427 Y66.842 E.96221
G1 X178.393 Y66.515 E.03398
M73 Q1 S198
G1 X177.508 Y65.943 E.03306
G1 X176.928 Y65.342 E.02619
G1 X176.537 Y64.761 E.02197
G1 X176.102 Y63.502 E.04177
G1 X175.787 Y63.554 E.01
G1 X175.787 Y77.751 E.44513
G1 X175.505 Y78.886 E.03667
G1 X175.089 Y79.685 E.02824
G1 X174.243 Y80.575 E.03849
G1 X173.614 Y80.977 E.02341
G1 X174.149 Y81.29 E.01945
G1 X174.883 Y82.023 E.03251
G1 X176.972 Y82.023 E.06548
G1 X177.52 Y81.445 E.02498
G1 X178.212 Y80.972 E.02627
G1 X179.737 Y80.508 E.05001
G1 X210.099 Y80.508 E.95197
G1 X211.234 Y80.79 E.03667
G1 X211.993 Y81.177 E.02671
G1 X213.003 Y82.154 E.04406
G1 X213.44 Y82.902 E.02716
G1 X213.787 Y84.185 E.04167
G1 X213.787 Y114.564 E.95252
G1 X213.352 Y116.02 E.04765
G1 X213.14 Y116.358 E.01248
G1 X213.389 Y116.779 E.01535
G1 X213.787 Y118.175 E.04552
G1 X213.787 Y148.432 E.94867
G1 X213.705 Y149.065 E.02002
G1 X213.261 Y150.189 E.0379
G1 X212.492 Y151.144 E.03844
G1 X211.513 Y151.82 E.0373
G1 X210.379 Y152.181 E.03731
G1 X201.121 Y152.218 E.29028
G1 X201.121 Y164.15 E.37411
G1 X200.605 Y165.784 E.05372
G1 X200.215 Y166.323 E.02088
G1 X199.551 Y166.984 E.02935
G1 X198.573 Y167.536 E.03522
G1 X197.433 Y167.82 E.03685
G1 X61.772 Y167.82 E4.25356
G1 X61.737 Y171.487 E.115
G1 X61.386 Y172.562 E.03545
G1 X60.741 Y173.505 E.03583
G1 X59.855 Y174.249 E.03626
G1 X58.631 Y174.752 E.04148
G1 X57.998 Y174.834 E.02
G1 X27.738 Y174.834 E.94878
G1 X26.104 Y174.318 E.05372
G1 X25.565 Y173.928 E.02088
G1 X24.905 Y173.264 E.02935
G1 X24.352 Y172.286 E.03522
G1 X24.068 Y171.146 E.03685
G1 X24.068 Y140.803 E.95137
G1 X24.409 Y139.518 E.04169
G1 X25.07 Y138.49 E.03832
G1 X25.622 Y137.971 E.02376
G1 X26.137 Y137.615 E.01963
G1 X27.267 Y137.193 E.03781
G1 X58.115 Y137.115 E.96723
G1 X59.699 Y137.604 E.05199
G1 X60.305 Y138.034 E.02328
G1 X61.121 Y138.914 E.03762
G1 X61.49 Y139.629 E.02525
G1 X61.739 Y140.587 E.03103
G1 X62.068 Y140.545 E.01041
G1 X62.068 Y127.554 E.4073
G1 X39.928 Y127.554 E.69419
G1 X38.308 Y127.047 E.05324
G1 X37.813 Y126.699 E.01898
G1 X37.26 Y126.18 E.02377
G1 X36.576 Y125.098 E.04014
G1 X36.258 Y123.867 E.03987
G1 X36.258 Y108.118 E.49379
G1 X27.406 Y108.07 E.27755
G1 X26.28 Y107.691 E.03725
G1 X25.368 Y107.051 E.03492
G1 X24.666 Y106.217 E.0342
G1 X24.406 Y105.714 E.01774
G1 X24.158 Y104.991 E.02398
G1 X24.068 Y74.077 E.9693
G1 X24.584 Y72.439 E.05383
G1 X24.974 Y71.9 E.02088
G1 X25.638 Y71.24 E.02935
G1 X26.548 Y70.725 E.03279
M204 S1000
;WIPE_START
G1 F8640
G1 X27.756 Y70.403 E-.2887
G1 X29.797 Y70.403 E-.4713
;WIPE_END
G1 E-.04 F2100
G1 Z.6 F720
G1 X61.787 Y145.106 F10800
G1 Z.2 F720
G1 E.8 F2100
M204 S800
G1 F1200
G1 X62.116 Y145.063 E.0104
G1 X62.375 Y146.051 E.03203
G1 X62.855 Y146.897 E.03049
G1 X63.626 Y147.69 E.03469
G1 X64.639 Y148.266 E.03653
G1 X65.812 Y148.536 E.03774
G1 X96.1 Y148.536 E.94964
G1 X97.33 Y148.219 E.03986
M73 P1 R196
G1 X98.448 Y147.504 E.0416
G1 X98.931 Y146.982 E.0223
G1 X99.279 Y146.487 E.01896
G1 X99.778 Y144.924 E.05146
G1 X99.781 Y136.55 E.26256
G1 X100.098 Y136.499 E.01008
G1 X100.383 Y137.363 E.02851
G1 X100.66 Y137.914 E.01935
G1 X101.426 Y138.81 E.03694
G1 X102.352 Y139.432 E.03499
G1 X103.408 Y139.777 E.03482
G1 X111.516 Y139.824 E.25423
G1 X111.516 Y155.101 E.47901
G1 X61.787 Y155.101 E1.55921
G1 X61.787 Y145.166 E.31152
M204 S1000
;WIPE_START
G1 F8640
G1 X62.116 Y145.063 E-.07952
G1 X62.375 Y146.051 E-.23587
G1 X62.855 Y146.897 E-.22454
G1 X63.519 Y147.581 E-.22007
;WIPE_END
G1 E-.04 F2100
G1 Z.6 F720
G1 X62.315 Y146.973 F10800
G1 Z.2 F720
G1 E.8 F2100
M204 S800
G1 F1200
G1 X62.436 Y146.938 E.00394
G1 X62.564 Y147.139 E.00748
G1 X63.416 Y148.004 E.03808
G1 X64.527 Y148.627 E.03993
G1 X65.79 Y148.913 E.04062
G1 X96.123 Y148.913 E.95106
G1 X97.508 Y148.553 E.04486
G1 X98.708 Y147.778 E.04479
G1 X99.217 Y147.229 E.02347
G1 X99.604 Y146.681 E.02105
G1 X100.155 Y144.953 E.05685
G1 X100.158 Y137.912 E.22077
G1 X101.194 Y139.108 E.04961
G1 X102.164 Y139.76 E.03664
G1 X103.319 Y140.145 E.03817
G1 X111.139 Y140.199 E.24519
G1 X111.139 Y154.724 E.45542
G1 X62.164 Y154.724 E1.53556
G1 X62.164 Y147.017 E.24166
G1 X62.257 Y146.99 E.00304
M204 S1000
G1 X62.541 Y147.663 F10800
M204 S800
G1 F1200
G1 X63.207 Y148.32 E.02933
G1 X64.367 Y148.969 E.04167
G1 X65.77 Y149.29 E.04512
