; generated by PrusaSlicer 2.4.1+linux-x64-GTK2 on 2022-09-07 at 18:25:55 UTC


;
;
; 

; external perimeters extrusion width = 0.45mm
; perimeters extrusion width = 0.45mm
; infill extrusion width = 0.45mm
; solid infill extrusion width = 0.45mm
; top infill extrusion width = 0.40mm
; support material extrusion width = 0.35mm
; first layer extrusion width = 0.42mm

M73 P0 R199
M73 Q0 S200
M201 X1000 Y1000 Z200 E5000 ; sets maximum accelerations, mm/sec^2
M203 X200 Y200 Z12 E120 ; sets maximum feedrates, mm / sec
M204 P1250 R1250 T1250 ; sets acceleration (P, T) and retract acceleration (R), mm/sec^2
M205 X8.00 Y8.00 Z0.40 E4.50 ; sets the jerk limits, mm/sec
M205 S0 T0 ; sets the minimum extruding and travel feed rate, mm/sec
M107
;TYPE:Custom
M862.3 P "MK3S" ; printer model check
M862.1 P0.4 ; nozzle diameter check
M115 U3.11.0 ; tell printer latest fw version
G90 ; use absolute coordinates
M83 ; extruder relative mode
M104 S215 ; set extruder temp
M140 S60 ; set bed temp
M190 S60 ; wait for bed temp
M109 S215 ; wait for extruder temp
G28 W ; home all without mesh bed level
G80 ; mesh bed leveling
G1 Z0.2 F720
G1 Y-3 F1000 ; go outside print area
G92 E0
G1 X60 E9 F1000 ; intro line
G1 X100 E12.5 F1000 ; intro line
G92 E0
M221 S95

; Don't change E values below. Excessive value can damage the printer.
M907 E430 ; set extruder motor current
G21 ; set units to millimeters
G90 ; use absolute coordinates
M83 ; use relative distances for extrusion
M900 K0.05 ; Filament gcode LA 1.5
M900 K30 ; Filament gcode LA 1.0
M107
;LAYER_CHANGE
;Z:0.2
;HEIGHT:0.2
;BEFORE_LAYER_CHANGE
G92 E0.0
;0.2


G1 E-.8 F2100
G1 Z.4 F720
;AFTER_LAYER_CHANGE
;0.2
G1 X24.334 Y26.451 F10800
G1 Z.2 F720
G1 E.8 F2100
M204 S800
;TYPE:Skirt/Brim
;WIDTH:0.42
G1 F1200
G1 X26.015 Y25.754 E.05704
G1 X59.96 Y25.757 E1.06431
G1 X199.293 Y32.771 E4.37424
G1 X200.855 Y33.464 E.05356
G1 X204.007 Y36.634 E.14016
G1 X216.673 Y52.234 E.63005
G1 X217.205 Y53.732 E.04985
G1 X217.205 Y172.887 E3.736
G1 X216.509 Y174.568 E.05704
M73 P0 R198
G1 X213.521 Y177.555 E.13247
G1 X211.84 Y178.251 E.05704
G1 X178.015 Y178.251 E1.06056
G1 X177.393 Y178.169 E.01968
G1 X25.393 Y136.938 E4.93808
G1 X24.334 Y136.324 E.03836
M73 Q0 S199
G1 X21.347 Y133.337 E.13247
G1 X20.651 Y131.656 E.05704
G1 X20.651 Y31.119 E3.15226
G1 X21.347 Y29.438 E.05704
G1 X24.292 Y26.493 E.13059
M204 S1000
;WIPE_START
G1 F8640
G1 X26.015 Y25.754 E-.43292
G1 X27.432 Y25.755 E-.32708
;WIPE_END
G1 E-.04 F2100
G1 Z.6 F720
G1 X25.891 Y28.952 F10800
G1 Z.2 F720
G1 E.8 F2100
M204 S800
G1 F1200
G1 X27.682 Y28.418 E.05859
G1 X58.125 Y28.422 E.95451
G1 X59.356 Y28.688 E.0395
G1 X60.449 Y29.245 E.03844
G1 X61.377 Y30.079 E.03912
G1 X62.061 Y31.106 E.0387
G1 X62.512 Y32.595 E.04878
G1 X62.527 Y35.432 E.08894
G1 X197.481 Y35.432 E4.2314
G1 X198.966 Y35.812 E.04806
G1 X200.302 Y36.67 E.04979
G1 X200.836 Y37.246 E.02461
G1 X201.264 Y37.85 E.0232
G1 X201.875 Y39.799 E.06405
G1 X201.875 Y51.037 E.35235
G1 X210.553 Y51.09 E.2721
G1 X211.895 Y51.534 E.04432
G1 X213.045 Y52.346 E.04416
G1 X213.941 Y53.486 E.04547
G1 X214.447 Y54.798 E.04406
G1 X214.541 Y55.55 E.02377
G1 X214.541 Y85.883 E.95109
G1 X214.1 Y87.484 E.05206
G1 X214.031 Y87.624 E.0049
G1 X214.541 Y89.387 E.05752
G1 X214.541 Y119.871 E.95583
G1 X214.155 Y121.348 E.04787
G1 X213.565 Y122.358 E.03668
G1 X212.477 Y123.41 E.04745
G1 X211.457 Y123.937 E.03599
G1 X210.146 Y124.252 E.04229
G1 X179.682 Y124.252 E.95517
G1 X177.833 Y123.689 E.06058
G1 X177.06 Y123.161 E.02936
G1 X176.647 Y122.737 E.01855
G1 X175.195 Y122.737 E.04553
G1 X174.902 Y123.03 E.01298
G1 X175.734 Y123.926 E.03833
G1 X176.211 Y124.854 E.03271
G1 X176.541 Y126.209 E.04374
G1 X176.541 Y137.964 E.36857
G1 X177.308 Y137.26 E.03263
G1 X178.005 Y136.839 E.02555
G1 X179.428 Y136.4 E.04667
G1 X210.173 Y136.361 E.96398
G1 X212.147 Y136.986 E.06493
G1 X212.826 Y137.488 E.0265
G1 X213.642 Y138.346 E.03711
G1 X214.226 Y139.443 E.03896
G1 X214.541 Y140.757 E.04237
G1 X214.541 Y171.194 E.95435
G1 X214.161 Y172.679 E.04806
G1 X213.303 Y174.015 E.04979
G1 X212.727 Y174.549 E.02461
G1 X212.123 Y174.977 E.0232
G1 X210.174 Y175.588 E.06405
G1 X179.684 Y175.588 E.956
G1 X177.998 Y175.106 E.05497
G1 X177.028 Y174.46 E.03656
G1 X176.116 Y173.467 E.04227
G1 X175.63 Y172.506 E.03375
G1 X175.332 Y171.332 E.03799
G1 X175.315 Y159.431 E.37316
G1 X174.509 Y160.17 E.03429
G1 X173.673 Y160.641 E.03009
G1 X172.151 Y161.04 E.04934
G1 X141.709 Y161.04 E.9545
G1 X140.351 Y160.711 E.0438
G1 X139.193 Y160.051 E.04179
G1 X138.253 Y159.107 E.04175
G1 X137.648 Y158.006 E.03939
G1 X137.332 Y156.783 E.0396
G1 X137.315 Y143.487 E.41689
G1 X136.36 Y144.315 E.03964
G1 X135.524 Y144.742 E.02942
G1 X134.243 Y145.069 E.04146
G1 X102.938 Y144.957 E.98154
G1 X102.078 Y144.638 E.02877
G1 X101.299 Y144.18 E.02832
G1 X100.353 Y143.268 E.04119
G1 X99.716 Y142.22 E.03847
G1 X99.359 Y141.015 E.0394
G1 X99.324 Y132.935 E.25334
G1 X98.837 Y133.449 E.02222
G1 X97.844 Y134.099 E.0372
G1 X96.165 Y134.576 E.05471
G1 X65.709 Y134.576 E.95494
G1 X64.397 Y134.259 E.04231
G1 X63.544 Y133.843 E.02977
G1 X62.515 Y132.954 E.04263
G1 X61.895 Y132.061 E.03408
G1 X60.857 Y133.213 E.04862
G1 X59.777 Y133.911 E.04031
G1 X58.162 Y134.357 E.05253
G1 X27.708 Y134.357 E.95486
G1 X26.223 Y133.976 E.04806
G1 X24.887 Y133.118 E.04979
G1 X24.353 Y132.543 E.02461
G1 X23.925 Y131.939 E.0232
G1 X23.314 Y129.99 E.06405
G1 X23.314 Y99.496 E.9561
G1 X23.939 Y97.524 E.06486
G1 X24.447 Y96.839 E.02674
G1 X25.476 Y95.904 E.04362
G1 X26.376 Y95.452 E.03156
G1 X27.404 Y95.17 E.03342
G1 X35.504 Y95.133 E.25398
G1 X35.509 Y80.047 E.47301
G1 X35.819 Y78.78 E.0409
G1 X36.277 Y77.861 E.03219
G1 X37.239 Y76.807 E.04475
G1 X37.952 Y76.295 E.02751
G1 X39.87 Y75.697 E.06299
G1 X61.314 Y75.697 E.67238
G1 X61.314 Y66.003 E.30395
G1 X60.797 Y66.544 E.02347
G1 X59.911 Y67.138 E.03343
G1 X58.172 Y67.645 E.0568
G1 X27.708 Y67.645 E.95517
G1 X26.223 Y67.264 E.04806
G1 X24.887 Y66.406 E.04979
G1 X24.353 Y65.831 E.02461
G1 X23.925 Y65.227 E.0232
G1 X23.314 Y63.278 E.06405
G1 X23.314 Y32.812 E.95524
G1 X23.671 Y31.383 E.04617
M73 P0 R197
G1 X24.459 Y30.104 E.04712
G1 X25.195 Y29.404 E.03184
G1 X25.841 Y28.984 E.02415
M204 S1000
G1 X26.029 Y29.303 F10800
M204 S800
G1 F1200
G1 X27.71 Y28.795 E.05505
G1 X58.104 Y28.799 E.95298
G1 X59.25 Y29.051 E.0368
G1 X60.253 Y29.568 E.03538
G1 X61.105 Y30.341 E.03608
G1 X61.731 Y31.291 E.03565
G1 X62.135 Y32.624 E.0437
G1 X62.151 Y35.809 E.09985
G1 X197.457 Y35.809 E4.2424
G1 X198.841 Y36.17 E.04486
M73 Q0 S198
G1 X200.042 Y36.944 E.04479
G1 X200.55 Y37.493 E.02347
G1 X200.939 Y38.043 E.02111
G1 X201.498 Y39.828 E.05863
G1 X201.498 Y51.412 E.36322
G1 X210.465 Y51.457 E.28116
G1 X211.703 Y51.859 E.04081
G1 X212.768 Y52.603 E.04073
G1 X213.601 Y53.651 E.04196
G1 X214.076 Y54.869 E.04099
G1 X214.164 Y55.562 E.02191
G1 X214.164 Y85.857 E.94989
G1 X213.744 Y87.356 E.0488
G1 X213.586 Y87.64 E.0102
G1 X213.705 Y87.849 E.00751
G1 X214.164 Y89.414 E.05115
G1 X214.164 Y119.846 E.95419
G1 X213.798 Y121.227 E.04478
G1 X213.284 Y122.105 E.0319
G1 X212.235 Y123.12 E.04576
G1 X211.346 Y123.577 E.03133
G1 X210.123 Y123.875 E.03949
G1 X179.71 Y123.875 E.95358
G1 X178.022 Y123.362 E.05529
G1 X177.29 Y122.861 E.02783
G1 X176.809 Y122.36 E.02177
G1 X175.039 Y122.36 E.05548
G1 X174.376 Y123.022 E.02938
G1 X175.411 Y124.123 E.04735
G1 X175.865 Y125.006 E.03117
G1 X176.164 Y126.232 E.03954
G1 X176.164 Y138.675 E.39016
G1 X176.432 Y138.756 E.00877
G1 X176.734 Y138.303 E.01707
G1 X177.52 Y137.572 E.03365
G1 X178.181 Y137.173 E.02421
G1 X179.457 Y136.777 E.04189
G1 X210.144 Y136.738 E.96218
G1 X211.949 Y137.308 E.05934
G1 X212.565 Y137.76 E.02396
G1 X213.351 Y138.587 E.03577
G1 X213.865 Y139.555 E.03438
G1 X214.164 Y140.78 E.03952
G1 X214.164 Y171.17 E.95286
G1 X213.804 Y172.554 E.04486
G1 X213.029 Y173.755 E.04479
G1 X212.48 Y174.264 E.02347
G1 X211.93 Y174.652 E.02111
G1 X210.145 Y175.211 E.05863
G1 X179.711 Y175.211 E.95425
G1 X178.132 Y174.752 E.05155
G1 X177.291 Y174.188 E.03176
G1 X176.412 Y173.231 E.04075
G1 X175.99 Y172.394 E.02938
G1 X175.703 Y171.262 E.03662
G1 X175.692 Y158.733 E.39284
G1 X175.424 Y158.652 E.00877
G1 X175.148 Y159.067 E.01562
G1 X174.304 Y159.853 E.03616
G1 X173.509 Y160.301 E.02861
G1 X172.127 Y160.663 E.04481
G1 X141.732 Y160.663 E.95301
G1 X140.468 Y160.351 E.04082
G1 X139.404 Y159.737 E.03851
G1 X138.541 Y158.862 E.03855
G1 X137.991 Y157.848 E.03618
G1 X137.703 Y156.714 E.03669
G1 X137.692 Y142.764 E.43739
G1 X137.427 Y142.682 E.0087
G1 X137.073 Y143.195 E.01955
G1 X136.167 Y143.991 E.03781
G1 X135.371 Y144.397 E.02801
G1 X134.22 Y144.691 E.03726
G1 X103.037 Y144.591 E.97773
G1 X102.252 Y144.303 E.02621
G1 X101.543 Y143.891 E.02573
G1 X100.661 Y143.049 E.03821
G1 X100.07 Y142.086 E.03545
G1 X99.736 Y140.985 E.03607
G1 X99.697 Y131.946 E.2834
G1 X98.606 Y133.15 E.05093
G1 X97.71 Y133.745 E.03372
G1 X96.138 Y134.199 E.0513
G1 X65.732 Y134.199 E.95338
G1 X64.507 Y133.898 E.03953
G1 X63.733 Y133.516 E.02708
G1 X62.781 Y132.687 E.03959
G1 X62.164 Y131.784 E.0343
G1 X61.912 Y131.095 E.023
G1 X61.397 Y132.06 E.03432
G1 X60.631 Y132.91 E.03586
G1 X59.597 Y133.579 E.03863
G1 X58.137 Y133.98 E.04747
G1 X27.732 Y133.98 E.95331
G1 X26.348 Y133.619 E.04486
G1 X25.147 Y132.845 E.04479
G1 X24.639 Y132.296 E.02347
G1 X24.25 Y131.746 E.02111
G1 X23.691 Y129.961 E.05863
G1 X23.691 Y99.525 E.9543
G1 X24.261 Y97.722 E.05929
G1 X24.716 Y97.104 E.02407
G1 X25.671 Y96.228 E.04063
G1 X26.494 Y95.81 E.02895
G1 X27.479 Y95.541 E.03203
G1 X35.881 Y95.509 E.26343
G1 X35.887 Y80.071 E.48406
G1 X36.179 Y78.892 E.03808
G1 X36.601 Y78.054 E.02941
G1 X37.478 Y77.099 E.04065
G1 X38.096 Y76.644 E.02407
G1 X39.899 Y76.074 E.05929
G1 X61.691 Y76.074 E.68328
G1 X61.691 Y65.032 E.34624
G1 X60.565 Y66.246 E.05193
G1 X59.775 Y66.785 E.03
G1 X58.144 Y67.268 E.05332
G1 X27.732 Y67.268 E.95354
G1 X26.348 Y66.907 E.04486
G1 X25.147 Y66.133 E.04479
G1 X24.639 Y65.584 E.02347
G1 X24.25 Y65.034 E.02111
G1 X23.691 Y63.249 E.05863
G1 X23.691 Y32.836 E.9536
G1 X24.029 Y31.505 E.04304
M73 P1 R197
M73 Q1 S198
G1 X24.765 Y30.324 E.04363
G1 X25.417 Y29.709 E.02811
G1 X25.979 Y29.336 E.02114
M204 S1000
G1 X26.168 Y29.655 F10800
M204 S800
G1 F1200
G1 X27.739 Y29.172 E.05151
G1 X58.084 Y29.176 E.95145
G1 X59.101 Y29.398 E.03266
G1 X60.02 Y29.866 E.03233
G1 X60.804 Y30.57 E.03303
G1 X61.401 Y31.475 E.03402
G1 X61.758 Y32.654 E.0386
G1 X61.776 Y36.186 E.11076
G1 X197.433 Y36.186 E4.25342
G1 X198.664 Y36.504 E.03986
G1 X199.782 Y37.218 E.0416
G1 X200.265 Y37.74 E.0223
G1 X200.613 Y38.236 E.019
G1 X201.121 Y39.856 E.05324
G1 X201.121 Y51.788 E.3741
G1 X210.379 Y51.825 E.29028
G1 X211.513 Y52.186 E.03731
G1 X212.492 Y52.862 E.0373
G1 X213.261 Y53.817 E.03844
G1 X213.705 Y54.941 E.0379
G1 X213.787 Y55.574 E.02002
G1 X213.787 Y85.831 E.94867
G1 X213.389 Y87.227 E.04552
G1 X213.14 Y87.648 E.01535
G1 X213.352 Y87.985 E.01248
G1 X213.787 Y89.442 E.04765
G1 X213.787 Y119.821 E.95252
G1 X213.44 Y121.104 E.04167
G1 X213.003 Y121.852 E.02716
G1 X211.993 Y122.829 E.04406
G1 X211.234 Y123.216 E.02671
G1 X210.099 Y123.498 E.03667
G1 X179.737 Y123.498 E.95197
G1 X178.212 Y123.034 E.05001
G1 X177.52 Y122.561 E.02627
G1 X176.972 Y121.983 E.02498
G1 X174.883 Y121.983 E.06548
G1 X174.149 Y122.716 E.03251
G1 X173.614 Y123.029 E.01945
G1 X174.243 Y123.431 E.02341
G1 X175.089 Y124.321 E.03849
G1 X175.505 Y125.12 E.02824
G1 X175.787 Y126.255 E.03667
G1 X175.787 Y140.483 E.44613
G1 X176.108 Y140.532 E.01016
G1 X176.453 Y139.419 E.03653
G1 X177.01 Y138.562 E.03205
G1 X177.734 Y137.883 E.03111
G1 X178.318 Y137.525 E.02148
G1 X179.487 Y137.154 E.03845
G1 X210.116 Y137.115 E.96035
G1 X211.752 Y137.631 E.05379
M73 P1 R196
G1 X212.303 Y138.033 E.0214
G1 X213.06 Y138.828 E.03441
G1 X213.505 Y139.669 E.02983
G1 X213.787 Y140.803 E.03665
G1 X213.787 Y171.146 E.95139
G1 X213.47 Y172.377 E.03986
G1 X212.755 Y173.495 E.0416
G1 X212.233 Y173.978 E.0223
G1 X211.737 Y174.326 E.019
G1 X210.117 Y174.834 E.05324
G1 X179.738 Y174.834 E.95249
G1 X178.267 Y174.399 E.0481
G1 X177.552 Y173.916 E.02706
G1 X176.735 Y173.036 E.03765
G1 X176.35 Y172.28 E.02657
G1 X176.074 Y171.192 E.03521
G1 X176.068 Y156.975 E.44576
G1 X175.752 Y156.924 E.01006
G1 X175.393 Y157.999 E.03555
G1 X174.872 Y158.809 E.0302
G1 X174.096 Y159.537 E.03335
G1 X173.387 Y159.943 E.02562
G1 X172.102 Y160.286 E.04172
G1 X141.755 Y160.286 E.95149
G1 X140.586 Y159.993 E.03779
G1 X139.617 Y159.425 E.0352
G1 X138.829 Y158.618 E.03537
G1 X138.35 Y157.733 E.03156
G1 X138.074 Y156.644 E.03522
G1 X138.068 Y140.958 E.49181
G1 X137.75 Y140.908 E.01011
G1 X137.372 Y142.085 E.03875
G1 X136.804 Y142.93 E.03192
G1 X135.972 Y143.667 E.03484
G1 X135.255 Y144.038 E.02531
G1 X134.196 Y144.314 E.03431
G1 X103.135 Y144.226 E.97391
G1 X102.427 Y143.968 E.02362
M73 Q1 S197
G1 X101.752 Y143.576 E.02447
G1 X100.941 Y142.795 E.0353
G1 X100.405 Y141.912 E.0324
G1 X100.105 Y140.904 E.03297
G1 X100.07 Y130.686 E.32039
G1 X99.676 Y130.686 E.01236
G1 X99.523 Y131.236 E.01791
G1 X99.106 Y132.037 E.0283
G1 X98.377 Y132.849 E.03423
G1 X97.526 Y133.415 E.03205
G1 X96.112 Y133.822 E.04613
G1 X65.755 Y133.822 E.95181
G1 X64.618 Y133.537 E.03675
G1 X63.96 Y133.215 E.02298
G1 X63.079 Y132.453 E.03653
G1 X62.491 Y131.593 E.03266
G1 X62.18 Y130.686 E.03008
G1 X61.62 Y130.686 E.01756
G1 X61.522 Y131.019 E.0109
G1 X61.099 Y131.828 E.0286
G1 X60.402 Y132.609 E.03282
G1 X59.466 Y133.224 E.03513
G1 X58.111 Y133.603 E.04413
G1 X27.756 Y133.603 E.95175
G1 X26.525 Y133.285 E.03986
G1 X25.407 Y132.571 E.0416
G1 X24.924 Y132.049 E.0223
G1 X24.576 Y131.553 E.019
G1 X24.068 Y129.933 E.05324
G1 X24.068 Y99.554 E.95249
G1 X24.584 Y97.919 E.05375
G1 X24.987 Y97.367 E.02142
G1 X25.866 Y96.551 E.03763
G1 X26.613 Y96.169 E.02629
G1 X27.555 Y95.911 E.03062
G1 X36.258 Y95.885 E.27289
G1 X36.258 Y80.139 E.4937
G1 X36.54 Y79.004 E.03667
G1 X36.925 Y78.25 E.02656
G1 X37.741 Y77.37 E.03764
G1 X38.293 Y76.967 E.02142
G1 X39.928 Y76.451 E.05375
G1 X62.068 Y76.451 E.6942
G1 X62.068 Y63.461 E.4073
G1 X61.739 Y63.419 E.01041
G1 X61.49 Y64.377 E.03103
G1 X61.121 Y65.092 E.02525
G1 X60.303 Y65.973 E.03767
G1 X59.588 Y66.456 E.02706
G1 X58.117 Y66.891 E.0481
G1 X27.756 Y66.891 E.95195
G1 X26.525 Y66.573 E.03986
G1 X25.407 Y65.859 E.0416
G1 X24.924 Y65.337 E.0223
G1 X24.576 Y64.841 E.019
G1 X24.068 Y63.221 E.05324
G1 X24.068 Y32.86 E.95194
G1 X24.386 Y31.629 E.03987
G1 X25.071 Y30.547 E.04013
G1 X25.642 Y30.012 E.02453
G1 X26.119 Y29.688 E.01807
M204 S1000
;WIPE_START
G1 F8640
G1 X27.739 Y29.172 E-.39258
G1 X29.33 Y29.172 E-.36742
;WIPE_END
G1 E-.04 F2100
G1 Z.6 F720
G1 X61.787 Y48.905 F10800
G1 Z.2 F720
G1 E.8 F2100
M204 S800
G1 F1200
G1 X111.516 Y48.905 E1.55921
G1 X111.516 Y64.178 E.47888
G1 X103.664 Y64.188 E.24618
G1 X102.013 Y64.75 E.05467
G1 X101.373 Y65.249 E.02546
G1 X100.697 Y66.04 E.03263
G1 X100.356 Y66.715 E.0237
G1 X100.117 Y67.651 E.03029
G1 X99.787 Y67.609 E.01043
G1 X99.787 Y59.14 E.26556
G1 X99.305 Y57.57 E.05149
G1 X98.93 Y57.022 E.0208
G1 X98.373 Y56.44 E.02527
G1 X97.275 Y55.764 E.04042
G1 X96.1 Y55.47 E.038
G1 X65.756 Y55.47 E.95139
G1 X64.616 Y55.753 E.03685
G1 X63.638 Y56.306 E.03522
G1 X62.974 Y56.966 E.02935
G1 X62.583 Y57.506 E.0209
G1 X62.106 Y58.989 E.04884
G1 X61.787 Y58.939 E.01011
G1 X61.787 Y48.965 E.31273
M204 S1000
G1 X62.164 Y49.282 F10800
M204 S800
G1 F1200
G1 X111.139 Y49.282 E1.53556
G1 X111.139 Y63.801 E.45524
G1 X103.573 Y63.821 E.23723
G1 X101.807 Y64.432 E.05858
G1 X101.099 Y64.989 E.02825
G1 X100.164 Y66.083 E.04511
G1 X100.164 Y59.111 E.2186
G1 X99.656 Y57.431 E.05503
G1 X99.213 Y56.773 E.02487
G1 X98.592 Y56.132 E.02799
G1 X97.448 Y55.427 E.04213
G1 X96.168 Y55.098 E.04144
G1 X65.733 Y55.093 E.95427
G1 X64.499 Y55.394 E.03982
G1 X63.429 Y55.991 E.03842
G1 X62.697 Y56.711 E.0322
G1 X62.424 Y57.082 E.01444
G1 X62.164 Y56.997 E.00857
G1 X62.164 Y49.342 E.24002
M204 S1000
G1 X62.541 Y49.659 F10800
M204 S800
G1 F1200
G1 X110.762 Y49.659 E1.51192
G1 X110.762 Y63.425 E.43162
G1 X103.54 Y63.444 E.22643
G1 X101.653 Y64.087 E.0625
G1 X100.541 Y64.943 E.04399
G1 X100.541 Y59.083 E.18373
G1 X100.009 Y57.294 E.05853
