; generated by PrusaSlicer 2.4.1+linux-x64-GTK2 on 2022-09-14 at 21:11:13 UTC


;
;
; 

; external perimeters extrusion width = 0.60mm
; perimeters extrusion width = 0.50mm
; infill extrusion width = 0.50mm
; solid infill extrusion width = 0.50mm
; top infill extrusion width = 0.45mm
; first layer extrusion width = 0.42mm

M73 P0 R53
M73 Q0 S53
M201 X1000 Y1000 Z200 E5000 ; sets maximum accelerations, mm/sec^2
M203 X200 Y200 Z12 E120 ; sets maximum feedrates, mm / sec
M204 P1250 R1250 T1250 ; sets acceleration (P, T) and retract acceleration (R), mm/sec^2
M205 X8.00 Y8.00 Z0.40 E4.50 ; sets the jerk limits, mm/sec
M205 S0 T0 ; sets the minimum extruding and travel feed rate, mm/sec
M107
;TYPE:Custom
M862.3 P "MK3S" ; printer model check
M862.1 P0.4 ; nozzle diameter check
M115 U3.11.0 ; tell printer latest fw version
G90 ; use absolute coordinates
M83 ; extruder relative mode
M104 S215 ; set extruder temp
M140 S60 ; set bed temp
M190 S60 ; wait for bed temp
M109 S215 ; wait for extruder temp
G28 W ; home all without mesh bed level
G80 ; mesh bed leveling
G1 Z0.2 F720
G1 Y-3 F1000 ; go outside print area
G92 E0
G1 X60 E9 F1000 ; intro line
G1 X100 E12.5 F1000 ; intro line
G92 E0
M221 S95

; Don't change E values below. Excessive value can damage the printer.

M907 E538 ; set extruder motor current
G21 ; set units to millimeters
G90 ; use absolute coordinates
M83 ; use relative distances for extrusion
M900 K0.05 ; Filament gcode LA 1.5
M900 K30 ; Filament gcode LA 1.0
M107
;LAYER_CHANGE
;Z:0.2
;HEIGHT:0.2
;BEFORE_LAYER_CHANGE
G92 E0.0
;0.2


G1 E-.8 F2100
G1 Z.4 F720
;AFTER_LAYER_CHANGE
;0.2
G1 X97.163 Y31.578 F10800
G1 Z.2 F720
G1 E.8 F2100
M204 S800
;TYPE:Skirt/Brim
;WIDTH:0.42
G1 F1200
G1 X98.883 Y26.84 E.15805
G1 X100.569 Y23.169 E.12666
G1 X102.453 Y20.034 E.11467
G1 X104.496 Y17.625 E.09907
G1 X104.952 Y17.218 E.01915
G1 X106.797 Y15.958 E.07006
G1 X107.614 Y15.602 E.02792
G1 X110 Y15.123 E.07631
G1 X159 Y15.123 E1.53636
G1 X160.307 Y15.515 E.04278
G1 X161.183 Y16.56 E.04278
G1 X161.377 Y17.5 E.03008
G1 X161.377 Y192.5 E5.487
G1 X160.985 Y193.807 E.04278
G1 X159.94 Y194.683 E.04278
G1 X159 Y194.877 E.03008
G1 X110 Y194.877 E1.53636
G1 X107.616 Y194.398 E.07625
G1 X106.8 Y194.043 E.0279
G1 X104.952 Y192.782 E.07014
G1 X104.496 Y192.375 E.01915
M73 P0 R52
G1 X102.453 Y189.965 E.09907
G1 X100.697 Y187.072 E.10611
G1 X98.808 Y182.978 E.14139
G1 X97.163 Y178.422 E.15188
G1 X95.666 Y173.306 E.16713
G1 X94.233 Y167.331 E.19264
G1 X92.966 Y160.887 E.20591
G1 X91.845 Y153.919 E.22129
G1 X90.878 Y146.49 E.2349
G1 X90.081 Y138.728 E.24465
G1 X89.444 Y130.529 E.25784
G1 X88.99 Y122.164 E.26266
G1 X88.714 Y113.602 E.2686
M73 Q0 S52
G1 X88.623 Y105.025 E.26894
G1 X88.714 Y96.399 E.27049
G1 X88.991 Y87.801 E.26972
G1 X89.444 Y79.471 E.26157
G1 X90.076 Y71.331 E.25599
G1 X90.886 Y63.446 E.24852
G1 X91.844 Y56.088 E.23264
G1 X92.966 Y49.113 E.22152
G1 X94.253 Y42.574 E.20896
G1 X95.635 Y36.808 E.18591
G1 X97.146 Y31.636 E.16894
M204 S1000
; printing object krabička do skříňky V2.stl id:0 copy 0
;WIPE_START
G1 F8640
G1 X98.267 Y28.541 E-.76
;WIPE_END
G1 E-.04 F2100
G1 Z.6 F720
G1 X139.211 Y80.71 F10800
G1 Z.2 F720
G1 E.8 F2100
M204 S800
;TYPE:Perimeter
G1 F1200
G1 X139.211 Y154.79 E2.32273
G1 X158.213 Y154.79 E.59579
M73 P1 R52
M73 Q1 S52
G1 X158.213 Y191.713 E1.15769
G1 X110.088 Y191.713 E1.50893
G1 X108.458 Y191.344 E.05239
G1 X106.821 Y190.227 E.06215
G1 X105.123 Y188.267 E.0813
G1 X103.425 Y185.469 E.10261
G1 X101.772 Y181.869 E.12422
G1 X100.192 Y177.509 E.1454
G1 X98.708 Y172.436 E.16575
G1 X97.334 Y166.704 E.18479
G1 X96.088 Y160.37 E.2024
G1 X94.981 Y153.499 E.21824
G1 X94.025 Y146.156 E.23216
G1 X93.23 Y138.414 E.24401
G1 X92.603 Y130.348 E.25367
G1 X92.151 Y122.036 E.26101
G1 X91.878 Y113.56 E.26589
G1 X91.787 Y105 E.26841
G1 X91.878 Y96.441 E.26838
G1 X92.151 Y87.964 E.26592
G1 X92.603 Y79.652 E.26101
G1 X93.23 Y71.586 E.25367
G1 X94.025 Y63.844 E.24401
G1 X94.981 Y56.501 E.23217
G1 X96.088 Y49.63 E.21824
G1 X97.334 Y43.296 E.2024
G1 X98.708 Y37.564 E.18479
G1 X100.192 Y32.491 E.16575
G1 X101.772 Y28.131 E.1454
G1 X103.425 Y24.531 E.12421
G1 X105.123 Y21.733 E.10261
G1 X106.821 Y19.773 E.0813
G1 X108.458 Y18.656 E.06215
G1 X110.088 Y18.287 E.05239
G1 X158.213 Y18.287 E1.50893
G1 X158.213 Y80.71 E1.95722
G1 X139.271 Y80.71 E.59391
M204 S1000
G1 X139.588 Y81.087 F10800
M204 S800
;TYPE:External perimeter
G1 F1200
G1 X139.588 Y154.413 E2.29909
G1 X158.59 Y154.413 E.59579
G1 X158.59 Y192.09 E1.18134
G1 X110.046 Y192.09 E1.52207
G1 X108.305 Y191.696 E.05597
M73 P2 R52
M73 Q2 S52
G1 X106.568 Y190.51 E.06593
G1 X104.818 Y188.49 E.08383
G1 X103.092 Y185.646 E.10429
G1 X101.423 Y182.012 E.12539
G1 X99.834 Y177.626 E.14626
G1 X98.343 Y172.533 E.16641
G1 X96.966 Y166.785 E.18533
G1 X95.717 Y160.437 E.20285
G1 X94.608 Y153.553 E.21862
G1 X93.65 Y146.2 E.23251
G1 X92.854 Y138.448 E.24432
G1 X92.227 Y130.373 E.25395
G1 X91.775 Y122.052 E.26128
G1 X91.501 Y113.568 E.26615
G1 X91.41 Y105 E.26867
G1 X91.501 Y96.433 E.26863
G1 X91.775 Y87.948 E.26618
G1 X92.227 Y79.627 E.26128
G1 X92.854 Y71.552 E.25395
G1 X93.65 Y63.8 E.24432
G1 X94.608 Y56.447 E.23251
G1 X95.717 Y49.563 E.21862
G1 X96.966 Y43.215 E.20285
G1 X98.343 Y37.467 E.18533
G1 X99.834 Y32.374 E.16641
G1 X101.423 Y27.988 E.14626
G1 X103.092 Y24.354 E.12539
G1 X104.818 Y21.51 E.10429
G1 X106.568 Y19.49 E.08383
G1 X108.305 Y18.304 E.06593
G1 X110.046 Y17.91 E.05597
G1 X158.59 Y17.91 E1.52207
G1 X158.59 Y81.087 E1.98087
G1 X139.648 Y81.087 E.59391
M204 S1000
G1 X139.224 Y81.252 F10800
;WIPE_START
G1 F8640
G1 X139.645 Y84.378 E-.76
;WIPE_END
G1 E-.04 F2100
G1 Z.6 F720
G1 X158.1 Y19.163 F10800
G1 Z.2 F720
G1 E.8 F2100
M204 S800
;TYPE:Solid infill
;WIDTH:0.42017
G1 F1200
G1 X157.507 Y18.57 E.0263
G1 X156.973 Y18.57 E.01674
G1 X157.93 Y19.527 E.04244
G1 X157.93 Y20.06 E.01674
G1 X156.44 Y18.57 E.06611
G1 X155.906 Y18.57 E.01674
G1 X157.93 Y20.594 E.08978
G1 X157.93 Y21.127 E.01674
G1 X155.373 Y18.57 E.11345
G1 X154.839 Y18.57 E.01674
G1 X157.93 Y21.661 E.13711
G1 X157.93 Y22.194 E.01674
M73 P2 R51
G1 X154.306 Y18.57 E.16078
G1 X153.772 Y18.57 E.01674
G1 X157.93 Y22.728 E.18445
G1 X157.93 Y23.261 E.01674
G1 X153.239 Y18.57 E.20812
G1 X152.705 Y18.57 E.01674
G1 X157.93 Y23.795 E.23178
G1 X157.93 Y24.328 E.01674
G1 X152.172 Y18.57 E.25545
G1 X151.638 Y18.57 E.01674
G1 X157.93 Y24.862 E.27912
G1 X157.93 Y25.395 E.01674
G1 X151.105 Y18.57 E.30279
G1 X150.571 Y18.57 E.01674
G1 X157.93 Y25.929 E.32645
G1 X157.93 Y26.462 E.01674
M73 Q2 S51
G1 X150.038 Y18.57 E.35012
G1 X149.504 Y18.57 E.01674
G1 X157.93 Y26.996 E.37379
G1 X157.93 Y27.529 E.01674
G1 X148.971 Y18.57 E.39746
G1 X148.437 Y18.57 E.01674
G1 X157.93 Y28.063 E.42112
G1 X157.93 Y28.596 E.01674
G1 X147.904 Y18.57 E.44479
G1 X147.37 Y18.57 E.01674
G1 X157.93 Y29.13 E.46846
G1 X157.93 Y29.663 E.01674
G1 X146.837 Y18.57 E.49213
G1 X146.303 Y18.57 E.01674
G1 X157.93 Y30.197 E.51579
G1 X157.93 Y30.73 E.01674
G1 X145.77 Y18.57 E.53946
G1 X145.236 Y18.57 E.01674
G1 X157.93 Y31.264 E.56313
G1 X157.93 Y31.797 E.01674
G1 X144.703 Y18.57 E.5868
G1 X144.169 Y18.57 E.01674
G1 X157.93 Y32.331 E.61046
G1 X157.93 Y32.864 E.01674
G1 X143.636 Y18.57 E.63413
G1 X143.102 Y18.57 E.01674
M73 P3 R51
M73 Q3 S51
G1 X157.93 Y33.398 E.6578
G1 X157.93 Y33.931 E.01674
G1 X142.569 Y18.57 E.68147
G1 X142.035 Y18.57 E.01674
G1 X157.93 Y34.465 E.70513
G1 X157.93 Y34.998 E.01674
G1 X141.502 Y18.57 E.7288
G1 X140.968 Y18.57 E.01674
G1 X157.93 Y35.532 E.75247
G1 X157.93 Y36.066 E.01674
G1 X140.434 Y18.57 E.77614
G1 X139.901 Y18.57 E.01674
G1 X157.93 Y36.599 E.7998
G1 X157.93 Y37.133 E.01674
G1 X139.367 Y18.57 E.82347
G1 X138.834 Y18.57 E.01674
G1 X157.93 Y37.666 E.84714
G1 X157.93 Y38.2 E.01674
G1 X138.3 Y18.57 E.87081
G1 X137.767 Y18.57 E.01674
G1 X157.93 Y38.733 E.89447
G1 X157.93 Y39.267 E.01674
G1 X137.233 Y18.57 E.91814
G1 X136.7 Y18.57 E.01674
G1 X157.93 Y39.8 E.94181
G1 X157.93 Y40.334 E.01674
G1 X136.166 Y18.57 E.96548
G1 X135.633 Y18.57 E.01674
G1 X157.93 Y40.867 E.98914
G1 X157.93 Y41.401 E.01674
G1 X135.099 Y18.57 E1.01281
G1 X134.566 Y18.57 E.01674
G1 X157.93 Y41.934 E1.03648
G1 X157.93 Y42.468 E.01674
G1 X134.032 Y18.57 E1.06015
G1 X133.499 Y18.57 E.01674
G1 X157.93 Y43.001 E1.08381
G1 X157.93 Y43.535 E.01674
G1 X132.965 Y18.57 E1.10748
G1 X132.432 Y18.57 E.01674
G1 X157.93 Y44.068 E1.13115
G1 X157.93 Y44.602 E.01674
G1 X131.898 Y18.57 E1.15482
G1 X131.365 Y18.57 E.01674
M73 P4 R51
M73 Q4 S51
G1 X157.93 Y45.135 E1.17848
G1 X157.93 Y45.669 E.01674
G1 X130.831 Y18.57 E1.20215
G1 X130.298 Y18.57 E.01674
G1 X157.93 Y46.202 E1.22582
G1 X157.93 Y46.736 E.01674
G1 X129.764 Y18.57 E1.24949
G1 X129.231 Y18.57 E.01674
G1 X157.93 Y47.269 E1.27315
G1 X157.93 Y47.803 E.01674
G1 X128.697 Y18.57 E1.29682
G1 X128.164 Y18.57 E.01674
G1 X157.93 Y48.336 E1.32049
G1 X157.93 Y48.87 E.01674
M73 P4 R50
G1 X127.63 Y18.57 E1.34416
G1 X127.097 Y18.57 E.01674
M73 Q4 S50
G1 X157.93 Y49.403 E1.36782
G1 X157.93 Y49.937 E.01674
G1 X126.563 Y18.57 E1.39149
G1 X126.03 Y18.57 E.01674
G1 X157.93 Y50.47 E1.41516
G1 X157.93 Y51.004 E.01674
G1 X125.496 Y18.57 E1.43883
G1 X124.963 Y18.57 E.01674
G1 X157.93 Y51.537 E1.46249
G1 X157.93 Y52.071 E.01674
G1 X124.429 Y18.57 E1.48616
G1 X123.896 Y18.57 E.01674
G1 X157.93 Y52.604 E1.50983
G1 X157.93 Y53.138 E.01674
M73 P5 R50
M73 Q5 S50
G1 X123.362 Y18.57 E1.5335
G1 X122.829 Y18.57 E.01674
G1 X157.93 Y53.671 E1.55716
G1 X157.93 Y54.205 E.01674
G1 X122.295 Y18.57 E1.58083
G1 X121.762 Y18.57 E.01674
G1 X157.93 Y54.738 E1.6045
G1 X157.93 Y55.272 E.01674
G1 X121.228 Y18.57 E1.62817
G1 X120.695 Y18.57 E.01674
G1 X157.93 Y55.805 E1.65183
G1 X157.93 Y56.339 E.01674
G1 X120.161 Y18.57 E1.6755
G1 X119.628 Y18.57 E.01674
G1 X157.93 Y56.872 E1.69917
G1 X157.93 Y57.406 E.01674
G1 X119.094 Y18.57 E1.72284
G1 X118.56 Y18.57 E.01674
G1 X157.93 Y57.94 E1.7465
G1 X157.93 Y58.473 E.01674
G1 X118.027 Y18.57 E1.77017
G1 X117.493 Y18.57 E.01674
G1 X157.93 Y59.007 E1.79384
G1 X157.93 Y59.54 E.01674
M73 P6 R50
M73 Q6 S50
G1 X116.96 Y18.57 E1.81751
G1 X116.426 Y18.57 E.01674
G1 X157.93 Y60.074 E1.84117
G1 X157.93 Y60.607 E.01674
G1 X115.893 Y18.57 E1.86484
G1 X115.359 Y18.57 E.01674
M73 P6 R49
G1 X157.93 Y61.141 E1.88851
G1 X157.93 Y61.674 E.01674
M73 Q6 S49
G1 X114.826 Y18.57 E1.91218
G1 X114.292 Y18.57 E.01674
G1 X157.93 Y62.208 E1.93584
G1 X157.93 Y62.741 E.01674
G1 X113.759 Y18.57 E1.95951
G1 X113.225 Y18.57 E.01674
G1 X157.93 Y63.275 E1.98318
G1 X157.93 Y63.808 E.01674
G1 X112.692 Y18.57 E2.00685
G1 X112.158 Y18.57 E.01674
G1 X157.93 Y64.342 E2.03051
G1 X157.93 Y64.875 E.01674
M73 P7 R49
M73 Q7 S49
G1 X111.625 Y18.57 E2.05418
G1 X111.091 Y18.57 E.01674
G1 X157.93 Y65.409 E2.07785
G1 X157.93 Y65.942 E.01674
G1 X110.558 Y18.57 E2.10152
G1 X110.119 Y18.57 E.01375
G1 X110.042 Y18.587 E.0025
G1 X157.93 Y66.476 E2.12441
G1 X157.93 Y67.009 E.01674
G1 X109.607 Y18.686 E2.14371
G1 X109.172 Y18.784 E.01399
G1 X157.93 Y67.543 E2.16301
G1 X157.93 Y68.076 E.01674
G1 X108.736 Y18.883 E2.18232
G1 X108.573 Y18.92 E.00526
G1 X108.375 Y19.055 E.00752
G1 X157.93 Y68.61 E2.19835
G1 X157.93 Y69.143 E.01674
G1 X108.058 Y19.271 E2.21241
G1 X107.741 Y19.488 E.01204
M73 P8 R49
M73 Q8 S49
G1 X157.93 Y69.677 E2.22647
G1 X157.93 Y70.21 E.01674
G1 X107.424 Y19.704 E2.24054
G1 X107.107 Y19.921 E.01204
M73 P8 R48
G1 X157.93 Y70.744 E2.2546
G1 X157.93 Y71.277 E.01674
M73 Q8 S48
G1 X106.838 Y20.185 E2.26652
G1 X106.591 Y20.471 E.01186
G1 X157.93 Y71.811 E2.27751
G1 X157.93 Y72.344 E.01674
G1 X106.343 Y20.757 E2.28849
G1 X106.095 Y21.043 E.01186
G1 X157.93 Y72.878 E2.29948
G1 X157.93 Y73.411 E.01674
G1 X105.848 Y21.329 E2.31047
G1 X105.6 Y21.615 E.01186
G1 X157.93 Y73.945 E2.32145
G1 X157.93 Y74.478 E.01674
M73 P9 R48
M73 Q9 S48
G1 X105.352 Y21.901 E2.33243
G1 X105.151 Y22.233 E.01218
G1 X157.93 Y75.012 E2.34137
G1 X157.93 Y75.545 E.01674
G1 X104.949 Y22.565 E2.35031
G1 X104.748 Y22.897 E.01218
G1 X157.93 Y76.079 E2.35925
G1 X157.93 Y76.612 E.01674
G1 X104.546 Y23.229 E2.36819
G1 X104.345 Y23.561 E.01218
G1 X157.93 Y77.146 E2.37713
G1 X157.93 Y77.679 E.01674
G1 X104.143 Y23.893 E2.38607
G1 X103.942 Y24.225 E.01218
G1 X157.93 Y78.213 E2.39501
G1 X157.93 Y78.746 E.01674
G1 X103.74 Y24.557 E2.40395
G1 X103.562 Y24.911 E.01246
M73 P10 R47
M73 Q10 S48
G1 X157.93 Y79.28 E2.41188
G1 X157.93 Y79.814 E.01674
M73 Q10 S47
G1 X103.394 Y25.277 E2.41933
G1 X103.226 Y25.643 E.01262
G1 X157.93 Y80.347 E2.42678
G1 X157.93 Y80.427 E.00251
G1 X157.477 Y80.427 E.01422
G1 X103.058 Y26.008 E2.41411
G1 X102.89 Y26.374 E.01262
G1 X156.943 Y80.427 E2.39789
G1 X156.41 Y80.427 E.01674
G1 X102.722 Y26.739 E2.38168
G1 X102.554 Y27.105 E.01262
G1 X155.876 Y80.427 E2.36546
G1 X155.343 Y80.427 E.01674
G1 X102.386 Y27.471 E2.34924
G1 X102.218 Y27.836 E.01262
M73 P11 R47
M73 Q11 S47
G1 X154.809 Y80.427 E2.33302
G1 X154.276 Y80.427 E.01674
G1 X102.05 Y28.202 E2.3168
G1 X101.906 Y28.591 E.01302
G1 X153.742 Y80.427 E2.29954
G1 X153.209 Y80.427 E.01674
G1 X101.764 Y28.983 E2.28217
G1 X101.622 Y29.374 E.01307
G1 X152.675 Y80.427 E2.26479
G1 X152.142 Y80.427 E.01674
G1 X101.48 Y29.766 E2.24742
G1 X101.338 Y30.158 E.01307
G1 X151.608 Y80.427 E2.23005
G1 X151.075 Y80.427 E.01674
G1 X101.197 Y30.549 E2.21267
G1 X101.055 Y30.941 E.01307
M73 P11 R46
G1 X150.541 Y80.427 E2.1953
G1 X150.008 Y80.427 E.01674
M73 P12 R46
M73 Q12 S46
G1 X100.913 Y31.332 E2.17793
G1 X100.771 Y31.724 E.01307
G1 X149.474 Y80.427 E2.16055
G1 X148.941 Y80.427 E.01674
G1 X100.629 Y32.116 E2.14318
G1 X100.487 Y32.507 E.01307
G1 X148.407 Y80.427 E2.1258
G1 X147.874 Y80.427 E.01674
G1 X100.363 Y32.916 E2.10767
G1 X100.242 Y33.329 E.01349
G1 X147.34 Y80.427 E2.08936
G1 X146.806 Y80.427 E.01674
G1 X100.121 Y33.742 E2.07105
G1 X100 Y34.154 E.01349
G1 X146.273 Y80.427 E2.05274
G1 X145.739 Y80.427 E.01674
G1 X99.88 Y34.567 E2.03443
G1 X99.759 Y34.98 E.01349
M73 P13 R46
M73 Q13 S46
G1 X145.206 Y80.427 E2.01612
G1 X144.672 Y80.427 E.01674
G1 X99.638 Y35.393 E1.99781
G1 X99.517 Y35.805 E.01349
G1 X144.139 Y80.427 E1.9795
G1 X143.605 Y80.427 E.01674
G1 X99.396 Y36.218 E1.96119
G1 X99.276 Y36.631 E.01349
G1 X143.072 Y80.427 E1.94288
G1 X142.538 Y80.427 E.01674
G1 X99.155 Y37.044 E1.92457
G1 X99.034 Y37.456 E.01349
G1 X142.005 Y80.427 E1.90626
G1 X141.471 Y80.427 E.01674
G1 X98.923 Y37.879 E1.88751
G1 X98.82 Y38.309 E.01388
M73 P13 R45
G1 X140.938 Y80.427 E1.86842
G1 X140.404 Y80.427 E.01674
M73 Q13 S45
G1 X98.717 Y38.74 E1.84932
G1 X98.614 Y39.17 E.01388
M73 P14 R45
M73 Q14 S45
G1 X139.871 Y80.427 E1.83023
G1 X139.337 Y80.427 E.01674
G1 X98.511 Y39.6 E1.81114
G1 X98.408 Y40.031 E.01388
G1 X138.928 Y80.551 E1.79756
G1 X138.928 Y81.085 E.01674
G1 X98.304 Y40.461 E1.80214
G1 X98.201 Y40.892 E.01388
G1 X138.928 Y81.618 E1.80672
G1 X138.928 Y82.152 E.01674
G1 X98.098 Y41.322 E1.81129
G1 X97.995 Y41.752 E.01388
G1 X138.928 Y82.685 E1.81587
G1 X138.928 Y83.219 E.01674
G1 X97.892 Y42.183 E1.82044
G1 X97.789 Y42.613 E.01388
G1 X138.928 Y83.753 E1.82502
G1 X138.928 Y84.286 E.01674
G1 X97.685 Y43.043 E1.8296
G1 X97.611 Y43.356 E.01009
G1 X97.587 Y43.478 E.0039
G1 X138.928 Y84.82 E1.83398
G1 X138.928 Y85.353 E.01674
M73 P15 R45
M73 Q15 S45
G1 X97.499 Y43.924 E1.83788
G1 X97.411 Y44.37 E.01425
G1 X138.928 Y85.887 E1.84177
G1 X138.928 Y86.42 E.01674
G1 X97.323 Y44.815 E1.84566
G1 X97.236 Y45.261 E.01425
G1 X138.928 Y86.954 E1.84955
G1 X138.928 Y87.487 E.01674
G1 X97.148 Y45.707 E1.85344
G1 X97.06 Y46.153 E.01425
G1 X138.928 Y88.021 E1.85733
G1 X138.928 Y88.554 E.01674
G1 X96.973 Y46.599 E1.86122
G1 X96.885 Y47.044 E.01425
M73 P15 R44
G1 X138.928 Y89.088 E1.86511
G1 X138.928 Y89.621 E.01674
G1 X96.797 Y47.49 E1.86901
G1 X96.709 Y47.936 E.01425
M73 Q15 S44
G1 X138.928 Y90.155 E1.8729
G1 X138.928 Y90.688 E.01674
G1 X96.622 Y48.382 E1.87679
G1 X96.534 Y48.827 E.01425
M73 P16 R44
M73 Q16 S44
G1 X138.928 Y91.222 E1.88068
G1 X138.928 Y91.755 E.01674
G1 X96.446 Y49.273 E1.88457
G1 X96.36 Y49.72 E.01428
G1 X138.928 Y92.289 E1.88841
G1 X138.928 Y92.822 E.01674
G1 X96.286 Y50.18 E1.89169
G1 X96.212 Y50.639 E.0146
G1 X138.928 Y93.356 E1.89497
G1 X138.928 Y93.889 E.01674
